abdealip/mapping-3d-robot-arm/data/joint_states.csv
timestamp,joint1,joint2,joint3,joint4,joint5,joint6
1740157761107442718,-2.8722949028015137,-0.13218440115451813,1.6029021739959717,-1.0050182342529297,-0.4183692932128906,1.066051959991455
1740157887107442718,-2.87457275390625,-0.13131515681743622,1.6032540798187256,-1.0027326345443726,-0.4166795313358307,1.063746452331543
1740157887127442718,-2.8768584728240967,-0.13032445311546326,1.6041065454483032,-0.9999101161956787,-0.41476204991340637,1.0610235929489136
1740157887147442718,-2.8800108432769775,-0.1289566606283188,1.6053733825683594,-0.9956456422805786,-0.41199368238449097,1.0569372177124023
1740157887167442718,-2.8839223384857178,-0.12725649774074554,1.607015609741211,-0.9901079535484314,-0.40850627422332764,1.0516189336776733
1740157887187442718,-2.8884170055389404,-0.12531344592571259,1.608845591545105,-0.9836805462837219,-0.4045754671096802,1.0454657077789307
1740157887207442718,-2.893195390701294,-0.12326174974441528,1.6107381582260132,-0.9767776727676392,-0.40041694045066833,1.0388952493667603
1740157887227442718,-2.8978049755096436,-0.12128674983978271,1.6125680208206177,-0.9698747396469116,-0.39639022946357727,1.0323413610458374
1740157887247442718,-2.9018776416778564,-0.11956741660833359,1.6141868829727173,-0.9636621475219727,-0.3928189277648926,1.0264302492141724
1740157887267442718,-2.9051756858825684,-0.1182187870144844,1.6154537200927734,-0.9587840437889099,-0.38997867703437805,1.0217890739440918
1740157887287442718,-2.9075534343719482,-0.11729200929403305,1.6162904500961304,-0.9555013179779053,-0.38806119561195374,1.0186636447906494
1740157887307442718,-2.909125566482544,-0.11672315746545792,1.616744041442871,-0.9536912441253662,-0.3869466781616211,1.0169410705566406
1740157887507442718,-2.911418914794922,-0.11601369082927704,1.6172446012496948,-0.951697051525116,-0.38548457622528076,1.0148801803588867
1740157887547442718,-2.914839744567871,-0.11479929089546204,1.6182299852371216,-0.9471871852874756,-0.3828240931034088,1.0105233192443848
1740157887567442718,-2.9178693294525146,-0.11366797983646393,1.6192387342453003,-0.9425085186958313,-0.3802834451198578,1.005972146987915
1740157887587442718,-2.9217119216918945,-0.11219791322946548,1.6205369234085083,-0.9362345337867737,-0.37697577476501465,0.9999023675918579
1740157887607442718,-2.926175832748413,-0.11048497259616852,1.6220306158065796,-0.9287794232368469,-0.3731408417224884,0.9927310347557068
1740157887627442718,-2.9310693740844727,-0.10864419490098953,1.623610258102417,-0.9205725789070129,-0.36895835399627686,0.9847421050071716
1740157887647442718,-2.9360318183898926,-0.10681619495153427,1.6251977682113647,-0.9121050238609314,-0.3647758364677429,0.9765806198120117
1740157887667442718,-2.940633535385132,-0.10513520985841751,1.6266837120056152,-0.904036283493042,-0.3609409034252167,0.9688531756401062
1740157887687442718,-2.9446067810058594,-0.10373545438051224,1.627919316291809,-0.8971027135848999,-0.35768118500709534,0.962226390838623
1740157887707442718,-2.9476592540740967,-0.10269362479448318,1.6288107633590698,-0.8919485211372375,-0.35526037216186523,0.9572701454162598
1740157887727442718,-2.9497225284576416,-0.10200972855091095,1.6293504238128662,-0.8887271285057068,-0.3536904454231262,0.9542336463928223
1740157887767442718,-2.9517014026641846,-0.1014600470662117,1.6297491788864136,-0.8864875435829163,-0.3524440824985504,0.9521109461784363
1740157887907442718,-2.954439401626587,-0.10071862488985062,1.6302732229232788,-0.8831281065940857,-0.35056254267692566,0.9486780166625977
1740157887927442718,-2.956655979156494,-0.1000155508518219,1.6308362483978271,-0.8793238401412964,-0.34881284832954407,0.9449547529220581
1740157887947442718,-2.959662675857544,-0.09901206940412521,1.6316652297973633,-0.8735100626945496,-0.34629616141319275,0.9393101334571838
1740157887967442718,-2.963083505630493,-0.09782962501049042,1.632673978805542,-0.8662543296813965,-0.34327614307403564,0.9322950839996338
1740157887987442718,-2.966488838195801,-0.09664079546928406,1.6336749792099,-0.8588605523109436,-0.34028008580207825,0.9251644611358643
1740157888007442718,-2.9695262908935547,-0.09562452882528305,1.6345118284225464,-0.8526325821876526,-0.3377394378185272,0.9192135334014893
1740157888027442718,-2.9718501567840576,-0.09489589184522629,1.6350904703140259,-0.8483220934867859,-0.3359537720680237,0.9151075482368469
1740157888047442718,-2.973437786102295,-0.09445486962795258,1.6354267597198486,-0.8459290862083435,-0.33491116762161255,0.912846565246582
1740157888187442718,-2.975109815597534,-0.09408415853977203,1.6357239484786987,-0.8441803455352783,-0.33401232957839966,0.9110813140869141
1740157888227442718,-2.976590156555176,-0.09371984004974365,1.635966420173645,-0.8422168493270874,-0.3330535888671875,0.9090871214866638
1740157888247442718,-2.9784233570098877,-0.09320850670337677,1.6363730430603027,-0.8390568494796753,-0.3317233622074127,0.9059690833091736
1740157888267442718,-2.9811229705810547,-0.092415951192379,1.6370142698287964,-0.8336418867111206,-0.3296021521091461,0.9006425738334656
1740157888287442718,-2.9844977855682373,-0.09138690680265427,1.6378588676452637,-0.8261560797691345,-0.326809823513031,0.8933353424072266
1740157888307442718,-2.988041400909424,-0.09025559574365616,1.6388128995895386,-0.817611813545227,-0.32377782464027405,0.8850932717323303
1740157888327442718,-2.9914238452911377,-0.08920737355947495,1.6396653652191162,-0.8096044063568115,-0.32093754410743713,0.8773843050003052
1740157888347442718,-2.9942233562469482,-0.0883764699101448,1.6403223276138306,-0.8034071326255798,-0.31870847940444946,0.8714463710784912
1740157888367442718,-2.9962635040283203,-0.08781401067972183,1.6407445669174194,-0.7994648218154907,-0.3172823488712311,0.8676974773406982
1740157888387442718,-2.997605800628662,-0.08750082552433014,1.640947937965393,-0.7974859476089478,-0.31646743416786194,0.8657004237174988
1740157888507442718,-2.9994235038757324,-0.08713649958372116,1.641135573387146,-0.795461118221283,-0.3155326545238495,0.8636099100112915
1740157888527442718,-3.000443458557129,-0.08688723295927048,1.6413075923919678,-0.7936970591545105,-0.31483757495880127,0.8618213534355164
1740157888547442718,-3.0020081996917725,-0.08647178113460541,1.6416438817977905,-0.790260910987854,-0.31363916397094727,0.8584513664245605
1740157888567442718,-3.0039334297180176,-0.08590931445360184,1.6420974731445312,-0.7853521704673767,-0.3120332658290863,0.8536322712898254
1740157888587442718,-3.005981206893921,-0.0853085070848465,1.6425666809082031,-0.7799218893051147,-0.3102835714817047,0.8483558893203735
1740157888607442718,-3.007798910140991,-0.08478439599275589,1.6429733037948608,-0.77513587474823,-0.3087615668773651,0.8437651991844177
1740157888627442718,-3.009225606918335,-0.08439451456069946,1.6432470083236694,-0.7718378305435181,-0.3076949715614319,0.8406419157981873
1740157888667442718,-3.010836362838745,-0.0840429738163948,1.6434738636016846,-0.769383430480957,-0.30678418278694153,0.838263213634491
1740157888727442718,-3.013305902481079,-0.08353164792060852,1.6438179016113281,-0.7657018899917603,-0.30540600419044495,0.8344942331314087
1740157888747442718,-3.0154151916503906,-0.08302032202482224,1.6441855430603027,-0.7611306309700012,-0.30390796065330505,0.8299605250358582
1740157888767442718,-3.0183911323547363,-0.08226611465215683,1.6447407007217407,-0.7538595795631409,-0.3016788959503174,0.8228145837783813
1740157888787442718,-3.021934747695923,-0.08133294433355331,1.6454445123672485,-0.7443335652351379,-0.2988745868206024,0.8135133981704712
1740157888807442718,-3.025531768798828,-0.08036141842603683,1.6461875438690186,-0.7340865731239319,-0.2959624230861664,0.8035624027252197
1740157888827442718,-3.0288453102111816,-0.07949855923652649,1.6468209028244019,-0.725020706653595,-0.29339781403541565,0.7947741746902466
1740157888847442718,-3.0315449237823486,-0.0788402259349823,1.6472901105880737,-0.7183172106742859,-0.2914443612098694,0.7883321046829224
1740157888867442718,-3.033677339553833,-0.0783800259232521,1.6475716829299927,-0.7140374183654785,-0.29017403721809387,0.784196674823761
1740157888887442718,-3.0355794429779053,-0.07802210003137589,1.6477750539779663,-0.7109694480895996,-0.289191335439682,0.7812250256538391
1740157888907442718,-3.0375964641571045,-0.07763221114873886,1.6480252742767334,-0.7072418928146362,-0.28805282711982727,0.7774320840835571
1740157888927442718,-3.040127754211426,-0.07710810005664825,1.6483927965164185,-0.7012593746185303,-0.28641098737716675,0.7714439630508423
1740157888947442718,-3.0433106422424316,-0.07641781121492386,1.6488933563232422,-0.6924082636833191,-0.2841459810733795,0.7627264261245728
1740157888967442718,-3.0468311309814453,-0.0756060779094696,1.6495110988616943,-0.6815323829650879,-0.2814854681491852,0.7520992755889893
1740157888987442718,-3.0502748489379883,-0.07479435205459595,1.6500976085662842,-0.670579731464386,-0.27884894609451294,0.7413949966430664
1740157889007442718,-3.053335189819336,-0.07411044836044312,1.6505746841430664,-0.6614218950271606,-0.2766558527946472,0.7324267029762268
1740157889027442718,-3.055804967880249,-0.07359272986650467,1.650895357131958,-0.6549637913703918,-0.2750619351863861,0.7261692881584167
1740157889047442718,-3.0579679012298584,-0.07319644838571548,1.6511220932006836,-0.6505459547042847,-0.2738874852657318,0.7218784689903259
1740157889067442718,-3.060169219970703,-0.07282573729753494,1.651333212852478,-0.6462047696113586,-0.27276095747947693,0.7175483107566833
1740157889087442718,-3.0627384185791016,-0.0723719373345375,1.6516069173812866,-0.6398694515228271,-0.27125096321105957,0.7112316489219666
1740157889107442718,-3.065936803817749,-0.07176473736763,1.6519979238510132,-0.6304661631584167,-0.26916569471359253,0.7018777132034302
1740157889127442718,-3.069603204727173,-0.07103609293699265,1.6524906158447266,-0.618347704410553,-0.26663702726364136,0.6899248957633972
1740157889147442718,-3.073307752609253,-0.0702882781624794,1.65298330783844,-0.605339527130127,-0.2640244662761688,0.6772259473800659
1740157889167442718,-3.076720714569092,-0.06961715966463089,1.653397798538208,-0.5938193202018738,-0.26172348856925964,0.666035532951355
1740157889187442718,-3.0795509815216064,-0.06909305602312088,1.653702735900879,-0.5851523280143738,-0.2599857747554779,0.6576717495918274
1740157889207442718,-3.0819056034088135,-0.06869038194417953,1.653882622718811,-0.5792005062103271,-0.2587394118309021,0.6518675088882446
1740157889227442718,-3.0842065811157227,-0.0683516263961792,1.6540312767028809,-0.5741230249404907,-0.257660835981369,0.6467885971069336
1740157889247442718,-3.086745262145996,-0.06796174496412277,1.654234528541565,-0.5674042105674744,-0.2563425898551941,0.6400846838951111
1740157889267442718,-3.089905261993408,-0.06745680421590805,1.6545239686965942,-0.5574026107788086,-0.25450900197029114,0.6301313042640686
1740157889287442718,-3.0938782691955566,-0.06681125611066818,1.654883623123169,-0.5437348484992981,-0.2521480917930603,0.6165643930435181
1740157889307442718,-3.0985493659973145,-0.06606344133615494,1.6552824974060059,-0.5269837975502014,-0.24939173460006714,0.5999566912651062
1740157889327442718,-3.1037724018096924,-0.06525170803070068,1.6557047367095947,-0.508269190788269,-0.24644361436367035,0.5815311670303345
1740157889347442718,-3.109325408935547,-0.06443358957767487,1.6560958623886108,-0.4885115325450897,-0.2434116005897522,0.5619952082633972
1740157889367442718,-3.114955186843872,-0.0636410266160965,1.6564555168151855,-0.46817097067832947,-0.2404634803533554,0.5419781804084778
1740157889387442718,-3.120546579360962,-0.06289321184158325,1.6567996740341187,-0.44755426049232483,-0.23763519525527954,0.5217286944389343
1740157889407442718,-3.1258695125579834,-0.062196530401706696,1.6570967435836792,-0.4270142614841461,-0.23496271669864655,0.5014952421188354
1740157889427442718,-3.1306326389312744,-0.061595723032951355,1.6573314666748047,-0.40782415866851807,-0.2325778603553772,0.4825599491596222
1740157889447442718,-3.1346592903137207,-0.061109960079193115,1.6575112342834473,-0.3917940557003021,-0.23063641786575317,0.46685630083084106
1740157889467442718,-3.1376352310180664,-0.06075842306017876,1.657644271850586,-0.3801204562187195,-0.22927021980285645,0.45541709661483765
1740157889487442718,-3.1396138668060303,-0.06054750084877014,1.6577067375183105,-0.37315618991851807,-0.22844329476356506,0.4486074149608612
1740157889507442718,-3.1408333778381348,-0.06043245270848274,1.6577380895614624,-0.3698427975177765,-0.22802385687828064,0.4453752934932709
1740157889547442718,-3.1416618824005127,-0.06034297123551369,1.6577537059783936,-0.36807870864868164,-0.2278081327676773,0.443519651889801
1740157901947442718,-3.140181541442871,-0.06036853790283203,1.6577537059783936,-0.3713921010494232,-0.22789202630519867,0.44622159004211426
1740157901967442718,-3.1383790969848633,-0.06053471937775612,1.6577458381652832,-0.37774279713630676,-0.22847925126552582,0.45267173647880554
1740157901987442718,-3.1356563568115234,-0.06086068972945213,1.6577224731445312,-0.3882812261581421,-0.22982148826122284,0.4632868766784668
1740157902007442718,-3.1320362091064453,-0.06134006008505821,1.6576520204544067,-0.4029460847377777,-0.23166705667972565,0.4778995215892792
1740157902027442718,-3.127633571624756,-0.06192169338464737,1.6574252843856812,-0.42080163955688477,-0.23396803438663483,0.4954942762851715
1740157902047442718,-3.1226022243499756,-0.06258002668619156,1.6571046113967896,-0.4404059052467346,-0.23658059537410736,0.5149235725402832
1740157902067442718,-3.1171717643737793,-0.06330227851867676,1.6567527055740356,-0.46070048213005066,-0.23936092853546143,0.5349439382553101
1740157902087442718,-3.1115190982818604,-0.06409483402967453,1.6563695669174194,-0.4811024069786072,-0.24227309226989746,0.5551151037216187
1740157902107442718,-3.1057820320129395,-0.06493852287530899,1.6559628248214722,-0.5013049244880676,-0.2453290820121765,0.5750724077224731
1740157902127442718,-3.1001217365264893,-0.0658077746629715,1.6555171012878418,-0.5210626125335693,-0.2485048919916153,0.5944329500198364
1740157902147442718,-3.0948524475097656,-0.06663868576288223,1.65504789352417,-0.5396544933319092,-0.25156086683273315,0.6126836538314819
1740157902167442718,-3.0902581214904785,-0.06739289313554764,1.6546021699905396,-0.5558226108551025,-0.2543412148952484,0.6285431385040283
1740157902187442718,-3.0865306854248047,-0.06802565604448318,1.6542580127716064,-0.5683859586715698,-0.25655829906463623,0.6408089399337769
1740157902207442718,-3.08383846282959,-0.06848585605621338,1.6540077924728394,-0.5768381357192993,-0.2580682933330536,0.6490431427955627
1740157902227442718,-3.082066774368286,-0.06875430047512054,1.653859257698059,-0.5814861059188843,-0.2589910924434662,0.6535882353782654
1740157902247442718,-3.0810389518737793,-0.06889491528272629,1.6537810564041138,-0.5835416913032532,-0.2594105303287506,0.6556698679924011
1740157903427442718,-3.080739736557007,-0.06974499672651291,1.6556187868118286,-0.5797680616378784,-0.26167556643486023,0.6523457169532776
1740157903447442718,-3.0809853076934814,-0.07047363370656967,1.6579804420471191,-0.5729725360870361,-0.2641323208808899,0.6451060771942139
1740157903467442718,-3.0812690258026123,-0.07123423367738724,1.6607097387313843,-0.5650265216827393,-0.26700854301452637,0.6368225812911987
1740157903487442718,-3.081698417663574,-0.07236554473638535,1.6648154258728027,-0.553107500076294,-0.27138277888298035,0.6245015859603882
1740157903507442718,-3.082097291946411,-0.07347129285335541,1.6686317920684814,-0.5423389077186584,-0.2755173444747925,0.6133742332458496
1740157903527442718,-3.08258056640625,-0.0748518705368042,1.673105001449585,-0.5301284193992615,-0.2803589701652527,0.6007370948791504
1740157903547442718,-3.0830790996551514,-0.07631554454565048,1.6777188777923584,-0.5180560350418091,-0.2853443920612335,0.5882888436317444
1740157903567442718,-3.083585262298584,-0.07783674448728561,1.682356357574463,-0.5063363909721375,-0.2904376983642578,0.57610684633255
1740157903587442718,-3.084099292755127,-0.079415462911129,1.6869312524795532,-0.4949849545955658,-0.29561489820480347,0.5643450617790222
1740157903607442718,-3.0846054553985596,-0.08104532212018967,1.6914982795715332,-0.4840169847011566,-0.3007800877094269,0.5530437231063843
1740157903627442718,-3.0851192474365234,-0.08271991461515427,1.6960262060165405,-0.47341716289520264,-0.30598124861717224,0.542048454284668
1740157903647442718,-3.0856332778930664,-0.08443925529718399,1.7004759311676025,-0.46318551898002625,-0.3112542927265167,0.5314735174179077
1740157903667442718,-3.0861318111419678,-0.08618415892124176,1.704925775527954,-0.4532913565635681,-0.3166232407093048,0.5212035775184631
1740157903687442718,-3.0866379737854004,-0.08796101808547974,1.709328532218933,-0.44373464584350586,-0.321920245885849,0.5112417340278625
1740157903707442718,-3.0871365070343018,-0.08978261798620224,1.7136532068252563,-0.4344847500324249,-0.32730117440223694,0.501642644405365
1740157903727442718,-3.0876426696777344,-0.09163618087768555,1.7179933786392212,-0.4255569577217102,-0.3327060639858246,0.4923115074634552
1740157903747442718,-3.0881567001342773,-0.09352809190750122,1.7222710847854614,-0.4168899655342102,-0.33813491463661194,0.48319077491760254
1740157903767442718,-3.08866286277771,-0.09547112882137299,1.7264940738677979,-0.4084990918636322,-0.34355178475379944,0.47443461418151855
1740157903787442718,-3.0891690254211426,-0.09745252132415771,1.7307014465332031,-0.40039968490600586,-0.3490045964717865,0.4659653604030609
1740157903807442718,-3.0896828174591064,-0.09947865456342697,1.734853982925415,-0.39251503348350525,-0.35457727313041687,0.45772382616996765
1740157903827442718,-3.0901968479156494,-0.10153675079345703,1.7389518022537231,-0.384891152381897,-0.36010199785232544,0.4497133493423462
1740157903847442718,-3.090703010559082,-0.1036267951130867,1.7430496215820312,-0.37751269340515137,-0.3656746745109558,0.4419703185558319
1740157903867442718,-3.0912015438079834,-0.1057615876197815,1.747100591659546,-0.3703489899635315,-0.37125930190086365,0.4344763457775116
1740157903887442718,-3.091707706451416,-0.10794112086296082,1.7510888576507568,-0.3633847236633301,-0.37687990069389343,0.427173376083374
1740157903907442718,-3.0922138690948486,-0.11016538739204407,1.7550537586212158,-0.35661986470222473,-0.3824525773525238,0.4200247824192047
1740157903927442718,-3.09271240234375,-0.11242800951004028,1.7590030431747437,-0.3500851094722748,-0.3880492150783539,0.41314420104026794
1740157903947442718,-3.0932188034057617,-0.1147225946187973,1.7628427743911743,-0.34371909499168396,-0.3937417268753052,0.4064725637435913
1740157903967442718,-3.0936942100524902,-0.11692769080400467,1.7665183544158936,-0.3376598656177521,-0.39924249053001404,0.40009239315986633
1740157903987442718,-3.0941238403320312,-0.11888990551233292,1.7698420286178589,-0.33221423625946045,-0.4042758643627167,0.39433518052101135
1740157904007442718,-3.094484329223633,-0.12056449800729752,1.7725399732589722,-0.3277963697910309,-0.40844637155532837,0.38964980840682983
1740157904027442718,-3.094752788543701,-0.12185560166835785,1.7745498418807983,-0.3246363699436188,-0.41152632236480713,0.38629016280174255
1740157904047442718,-3.094944477081299,-0.12273763865232468,1.7758870124816895,-0.32271888852119446,-0.41341981291770935,0.38433483242988586
1740157904267442718,-3.095120906829834,-0.12372833490371704,1.777279019355774,-0.32121559977531433,-0.41512158513069153,0.38257506489753723
1740157904327442718,-3.0953893661499023,-0.12522396445274353,1.7793123722076416,-0.3185771405696869,-0.4180457293987274,0.3796595335006714
1740157904347442718,-3.0956578254699707,-0.12646393477916718,1.7811501026153564,-0.3159080147743225,-0.42090997099876404,0.376783549785614
1740157904367442718,-3.095987558364868,-0.12812574207782745,1.7835822105407715,-0.3121957778930664,-0.42485275864601135,0.37285056710243225
1740157904387442718,-3.0963940620422363,-0.13015827536582947,1.7864913940429688,-0.30773189663887024,-0.42969438433647156,0.3680942952632904
1740157904407442718,-3.0968313217163086,-0.13250398635864258,1.78975248336792,-0.30291521549224854,-0.43508729338645935,0.36296263337135315
1740157904427442718,-3.0973143577575684,-0.13505423069000244,1.793201208114624,-0.2979757785797119,-0.44068393111228943,0.35763517022132874
1740157904447442718,-3.097851276397705,-0.13795600831508636,1.7970644235610962,-0.29259151220321655,-0.44699960947036743,0.35194817185401917
1740157904467442718,-3.098357677459717,-0.14066603779792786,1.800552248954773,-0.2878054976463318,-0.45283594727516174,0.3468460142612457
1740157904487442718,-3.098856210708618,-0.14342720806598663,1.8040167093276978,-0.28314217925071716,-0.458612322807312,0.3418792486190796
1740157904507442718,-3.099346876144409,-0.14621393382549286,1.8074889183044434,-0.27860161662101746,-0.46442466974258423,0.3370460271835327
1740157904527442718,-3.0998454093933105,-0.14902624487876892,1.8108829259872437,-0.2741684019565582,-0.4702969491481781,0.33228829503059387
1740157904547442718,-3.1003057956695557,-0.1516084372997284,1.8138859272003174,-0.27025675773620605,-0.4756179451942444,0.3280976414680481
1740157904567442718,-3.100857973098755,-0.1548234075307846,1.8175301551818848,-0.2656087875366211,-0.48206546902656555,0.3230983018875122
1740157904587442718,-3.1013104915618896,-0.15746952593326569,1.8205252885818481,-0.26191189885139465,-0.48736247420310974,0.31911906599998474
1740157904607442718,-3.101809024810791,-0.16044160723686218,1.8237550258636475,-0.2578928768634796,-0.49329468607902527,0.3148011565208435
1740157904627442718,-3.1023075580596924,-0.16347761452198029,1.826906681060791,-0.25398120284080505,-0.49914297461509705,0.3105999529361725
1740157904647442718,-3.1028060913085938,-0.16653919219970703,1.830058217048645,-0.2501462697982788,-0.5050272345542908,0.3064747452735901
1740157904667442718,-3.103304624557495,-0.16965827345848083,1.8332332372665405,-0.2463880032300949,-0.5110073685646057,0.3024435043334961
1740157904687442718,-3.1037955284118652,-0.1728157252073288,1.8363144397735596,-0.24273712933063507,-0.5169395804405212,0.2985090911388397
1740157904707442718,-3.1042940616607666,-0.17597955465316772,1.8393409252166748,-0.23916295170783997,-0.522871732711792,0.29459384083747864
1740157904727442718,-3.104792594909668,-0.1792009174823761,1.842320442199707,-0.2356654852628708,-0.5288398861885071,0.29081210494041443
1740157904747442718,-3.105283498764038,-0.18246062099933624,1.8453234434127808,-0.23226004838943481,-0.5347960591316223,0.2871072590351105
1740157904767442718,-3.105774402618408,-0.1857650727033615,1.8482794761657715,-0.22893130779266357,-0.5407162308692932,0.28353744745254517
1740157904787442718,-3.1062653064727783,-0.1891142725944519,1.8511418104171753,-0.2256639301776886,-0.5466604232788086,0.2799670696258545
1740157904807442718,-3.1067562103271484,-0.19248902797698975,1.8539491891860962,-0.22248858213424683,-0.5527004599571228,0.2765098810195923
1740157904827442718,-3.1072468757629395,-0.195927694439888,1.856764554977417,-0.21935926377773285,-0.5586686134338379,0.27311164140701294
1740157904847442718,-3.107745409011841,-0.1994047313928604,1.8595798015594482,-0.2163066416978836,-0.564636766910553,0.26977092027664185
1740157904867442718,-3.108236312866211,-0.20288175344467163,1.8623013496398926,-0.21331538259983063,-0.5706648230552673,0.2665056586265564
1740157904887442718,-3.1087348461151123,-0.20640350878238678,1.8649524450302124,-0.21040081977844238,-0.5766090154647827,0.2632996439933777
1740157904907442718,-3.1092333793640137,-0.2099764049053192,1.8675800561904907,-0.2075476050376892,-0.5825771689414978,0.26013150811195374
1740157904927442718,-3.1097166538238525,-0.21359404921531677,1.870231032371521,-0.20477110147476196,-0.5886411666870117,0.25711485743522644
1740157904947442718,-3.11019229888916,-0.21724364161491394,1.8728117942810059,-0.20204061269760132,-0.5946692228317261,0.25409889221191406
1740157904967442718,-3.1107213497161865,-0.22130230069160461,1.8755801916122437,-0.19909538328647614,-0.6012605428695679,0.25084158778190613
1740157904987442718,-3.11116623878479,-0.22468984127044678,1.877808928489685,-0.1967330425977707,-0.6066774129867554,0.24824051558971405
1740157905007442718,-3.111649513244629,-0.22845448553562164,1.880272388458252,-0.19414061307907104,-0.6127175092697144,0.24545443058013916
1740157905027442718,-3.1121327877044678,-0.232238307595253,1.8826810121536255,-0.19162489473819733,-0.6186856031417847,0.2426505982875824
1740157905047442718,-3.112623691558838,-0.23606686294078827,1.8850661516189575,-0.18915517628192902,-0.6246657371520996,0.23992323875427246
1740157905067442718,-3.113114356994629,-0.23997212946414948,1.887388825416565,-0.18671615421772003,-0.6307417750358582,0.2372322976589203
1740157905087442718,-3.1136128902435303,-0.2438901662826538,1.8896489143371582,-0.1843538135290146,-0.636733889579773,0.2345813810825348
1740157905107442718,-3.114119291305542,-0.24782738089561462,1.89188551902771,-0.18203750252723694,-0.6427499651908875,0.23200669884681702
1740157905127442718,-3.114610195159912,-0.25184768438339233,1.8940986394882202,-0.17976722121238708,-0.6488139629364014,0.2294694036245346
1740157905147442718,-3.1151087284088135,-0.2558871805667877,1.8963117599487305,-0.1775122731924057,-0.654818058013916,0.22697164118289948
1740157905167442718,-3.1155993938446045,-0.2599330544471741,1.8984310626983643,-0.1753186732530594,-0.6608221530914307,0.22456976771354675
1740157905187442718,-3.1160826683044434,-0.2640172839164734,1.9005112648010254,-0.1731557548046112,-0.6668981909751892,0.22216643393039703
1740157905207442718,-3.1165735721588135,-0.2681846022605896,1.9025367498397827,-0.17103886604309082,-0.6729502081871033,0.21982114017009735
1740157905227442718,-3.1170568466186523,-0.2723518908023834,1.9045308828353882,-0.16896799206733704,-0.6789543032646179,0.21751512587070465
1740157905247442718,-3.1175477504730225,-0.27656397223472595,1.9064937829971313,-0.16691245138645172,-0.6849943399429321,0.2152659296989441
1740157905267442718,-3.1180386543273926,-0.28083354234695435,1.9084488153457642,-0.16491828858852386,-0.6910343766212463,0.21307425200939178
1740157905287442718,-3.1185293197631836,-0.2851095199584961,1.9103569984436035,-0.16295479238033295,-0.6970025300979614,0.2108648419380188
1740157905307442718,-3.1190125942230225,-0.28940466046333313,1.9121869802474976,-0.16103731095790863,-0.7029826641082764,0.20871271193027496
1740157905327442718,-3.1195034980773926,-0.2937892973423004,1.9139699935913086,-0.15915051102638245,-0.7090586423873901,0.20663537085056305
1740157905347442718,-3.1199944019317627,-0.29818031191825867,1.9156982898712158,-0.15727905929088593,-0.7150507569313049,0.20454052090644836
1740157905367442718,-3.120469808578491,-0.3026096820831299,1.9173952341079712,-0.155453622341156,-0.7210548520088196,0.20250298082828522
1740157905387442718,-3.12095308303833,-0.30708378553390503,1.919076681137085,-0.15365886688232422,-0.7270829677581787,0.20050327479839325
1740157905407442718,-3.1214516162872314,-0.3115706741809845,1.9207267761230469,-0.15191012620925903,-0.733051061630249,0.19850479066371918
1740157905427442718,-3.1219348907470703,-0.31607675552368164,1.922345519065857,-0.1501767337322235,-0.7390072345733643,0.19658324122428894
1740157905447442718,-3.1224026679992676,-0.3206658959388733,1.9239017963409424,-0.14847400784492493,-0.7450352907180786,0.1946602612733841
1740157905467442718,-3.1228859424591064,-0.3252614736557007,1.9253876209259033,-0.146786630153656,-0.7510634064674377,0.1927947849035263
1740157905487442718,-3.1233692169189453,-0.32989534735679626,1.926842212677002,-0.14512993395328522,-0.7570195198059082,0.190949946641922
1740157905507442718,-3.123852252960205,-0.33457401394844055,1.928257703781128,-0.14351925253868103,-0.7629996538162231,0.18916212022304535
1740157905527442718,-3.124343156814575,-0.3392462432384491,1.9296183586120605,-0.14193925261497498,-0.7689917683601379,0.18739326298236847
1740157905547442718,-3.124818801879883,-0.34389933943748474,1.930924415588379,-0.1403745859861374,-0.7748640775680542,0.18568430840969086
1740157905567442718,-3.1252636909484863,-0.3483734428882599,1.9320974349975586,-0.1389019638299942,-0.7805086374282837,0.18401825428009033
1740157905587442718,-3.125654697418213,-0.352323442697525,1.9331063032150269,-0.1376134306192398,-0.7856019139289856,0.18257415294647217
1740157905607442718,-3.125976800918579,-0.3555575907230377,1.9339430332183838,-0.13655497133731842,-0.7896406054496765,0.1813812404870987
1740157905627442718,-3.1262147426605225,-0.35786494612693787,1.934560775756836,-0.13584934175014496,-0.7924329042434692,0.18065428733825684
1740157905667442718,-3.1264448165893555,-0.3600764274597168,1.9352177381515503,-0.13525108993053436,-0.7948417663574219,0.17999252676963806
1740157905967442718,-3.126575231552124,-0.3617510199546814,1.9356634616851807,-0.13488294184207916,-0.7966513633728027,0.17945778369903564
1740157905987442718,-3.1267361640930176,-0.3632914125919342,1.9360700845718384,-0.1344534158706665,-0.798425018787384,0.1789621114730835
1740157906007442718,-3.126973867416382,-0.3656882345676422,1.9366332292556763,-0.13374778628349304,-0.8013851642608643,0.17819344997406006
1740157906027442718,-3.1273038387298584,-0.3689735233783722,1.937337040901184,-0.1327507048845291,-0.8054957389831543,0.177094966173172
1740157906047442718,-3.127694845199585,-0.37301939725875854,1.9381425380706787,-0.1315695345401764,-0.8104092478752136,0.17575034499168396
1740157906067442718,-3.128124475479126,-0.377544641494751,1.9390497207641602,-0.13026565313339233,-0.815838098526001,0.17431871592998505
1740157906087442718,-3.1285922527313232,-0.38237667083740234,1.9400193691253662,-0.12893109023571014,-0.8215785622596741,0.17280414700508118
1740157906107442718,-3.129067897796631,-0.3873429298400879,1.9409812688827515,-0.12758119404315948,-0.8274388313293457,0.17134469747543335
1740157906127442718,-3.129558801651001,-0.39235395193099976,1.941888451576233,-0.12623128294944763,-0.8332871198654175,0.16982798278331757
1740157906147442718,-3.1300342082977295,-0.39744803309440613,1.9427798986434937,-0.12491206079721451,-0.839135468006134,0.16836878657341003
1740157906167442718,-3.1305174827575684,-0.4025613069534302,1.943624496459961,-0.12362352013587952,-0.8450196981430054,0.16694721579551697
1740157906187442718,-3.130992889404297,-0.4076937437057495,1.9444222450256348,-0.12233497202396393,-0.8508320450782776,0.1655270904302597
1740157906207442718,-3.1314685344696045,-0.41287094354629517,1.9451963901519775,-0.12109244614839554,-0.8566084504127502,0.16410766541957855
1740157906227442718,-3.1319594383239746,-0.4180545210838318,1.945915937423706,-0.11984992772340775,-0.862456738948822,0.16272516548633575
1740157906247442718,-3.1324427127838135,-0.42326366901397705,1.946588397026062,-0.11862274259328842,-0.8682810664176941,0.16134314239025116
1740157906267442718,-3.1329257488250732,-0.42851755023002625,1.9472062587738037,-0.11742623895406723,-0.8740694522857666,0.16009606420993805
1740157906287442718,-3.1333937644958496,-0.4337905943393707,1.9477771520614624,-0.11622972786426544,-0.8798338770866394,0.15873442590236664
1740157906307442718,-3.133869171142578,-0.4391148090362549,1.9483245611190796,-0.11506390571594238,-0.8856222629547119,0.15746816992759705
1740157906327442718,-3.1343448162078857,-0.44442620873451233,1.9488016366958618,-0.11389807611703873,-0.8913267254829407,0.1561460793018341
1740157906347442718,-3.1348202228546143,-0.44974401593208313,1.949231743812561,-0.11277827620506287,-0.8970072865486145,0.1549203097820282
1740157906367442718,-3.1352651119232178,-0.4549403786659241,1.9495679140090942,-0.11168915033340454,-0.9026278853416443,0.15373411774635315
1740157906387442718,-3.135671615600586,-0.4596956968307495,1.9498182535171509,-0.11069206148386002,-0.9078050851821899,0.15261432528495789
1740157906407442718,-3.1360092163085938,-0.4637160003185272,1.9500372409820557,-0.10984837263822556,-0.9120834469795227,0.15170422196388245
1740157906427442718,-3.136277675628662,-0.46673282980918884,1.9502092599868774,-0.1092347800731659,-0.9152592420578003,0.15100795030593872
1740157906447442718,-3.136453866958618,-0.46871423721313477,1.950350046157837,-0.1088666245341301,-0.917224645614624,0.15060432255268097
1740157906507442718,-3.136645793914795,-0.47055500745773315,1.9506158828735352,-0.10855982452630997,-0.9188784956932068,0.15030279755592346
1740157906727442718,-3.13696026802063,-0.47392338514328003,1.950952172279358,-0.10797691345214844,-0.922150194644928,0.1496429443359375
1740157906747442718,-3.137197971343994,-0.47674205899238586,1.9510616064071655,-0.10744001716375351,-0.9250863194465637,0.14902815222740173
1740157906767442718,-3.137512445449829,-0.48053228855133057,1.9511476755142212,-0.10670370608568192,-0.929029107093811,0.14820148050785065
1740157906787442718,-3.1378958225250244,-0.4851214289665222,1.9512102603912354,-0.10582934319972992,-0.9337988495826721,0.1472432166337967
1740157906807442718,-3.1383254528045654,-0.49023470282554626,1.9512805938720703,-0.10486292839050293,-0.939035952091217,0.14621809124946594
1740157906827442718,-3.1387856006622314,-0.495629221200943,1.9513353109359741,-0.103865846991539,-0.9445487260818481,0.14512991905212402
1740157906847442718,-3.1392533779144287,-0.5011771321296692,1.9513822793960571,-0.10288409888744354,-0.9500494599342346,0.14402282238006592
1740157906867442718,-3.1397290229797363,-0.5068017244338989,1.9514135122299194,-0.10190235078334808,-0.9555861949920654,0.14301086962223053
1740157906887442718,-3.1401891708374023,-0.5123176574707031,1.9513978958129883,-0.10093594342470169,-0.9610989093780518,0.1419418901205063
1740157906907442718,-3.1405956745147705,-0.5174117088317871,1.9513822793960571,-0.10003089159727097,-0.9662041664123535,0.14101526141166687
1740157906927442718,-3.140948534011841,-0.5217643976211548,1.9513431787490845,-0.0992792397737503,-0.9704585671424866,0.14020153880119324
1740157906947442718,-3.141216993331909,-0.5250113606452942,1.9512571096420288,-0.09872701019048691,-0.9736104607582092,0.13958242535591125
1740157906967442718,-3.1413934230804443,-0.5271205306053162,1.9511789083480835,-0.09838953614234924,-0.9755638837814331,0.13921737670898438
1740157907007442718,-3.1415622234344482,-0.5288782119750977,1.9511711597442627,-0.09815943241119385,-0.9769420623779297,0.13897891342639923
1740157907947442718,-3.141447067260742,-0.5250049233436584,1.9509209394454956,-0.09825147688388824,-0.9740418791770935,0.1390177309513092
1740157907967442718,-3.141186237335205,-0.5217772126197815,1.9509286880493164,-0.09888041019439697,-0.9707222580909729,0.13923752307891846
1740157907987442718,-3.140810489654541,-0.5176162719726562,1.950952172279358,-0.0996934175491333,-0.9664438962936401,0.14009007811546326
1740157908007442718,-3.1403732299804688,-0.5127202868461609,1.950967788696289,-0.10062914341688156,-0.9615063667297363,0.14122426509857178
1740157908027442718,-3.1399130821228027,-0.5073961019515991,1.950999140739441,-0.10161089152097702,-0.9561614394187927,0.14236660301685333
1740157908047442718,-3.1394221782684326,-0.5019121170043945,1.9510538578033447,-0.10263866186141968,-0.9506726264953613,0.14355017244815826
1740157908067442718,-3.1389236450195312,-0.4963386654853821,1.951085090637207,-0.10365108400583267,-0.945159912109375,0.14471504092216492
1740157908087442718,-3.1384403705596924,-0.4907588064670563,1.951085090637207,-0.1046941950917244,-0.9395393133163452,0.14588205516338348
1740157908107442718,-3.1379497051239014,-0.4852045178413391,1.9510773420333862,-0.10572195798158646,-0.933894693851471,0.1470879167318344
1740157908127442718,-3.1374588012695312,-0.4796757996082306,1.9510538578033447,-0.10678040981292725,-0.9282621145248413,0.1482360064983368
1740157908147442718,-3.136967897415161,-0.47419822216033936,1.9509600400924683,-0.10783885419368744,-0.9226295351982117,0.14944161474704742
1740157908167442718,-3.1364922523498535,-0.46871423721313477,1.9507253170013428,-0.1089126393198967,-0.9169370532035828,0.15064842998981476
1740157908187442718,-3.136016845703125,-0.46326860785484314,1.9504047632217407,-0.11000176519155502,-0.9112685322761536,0.1518547534942627
1740157908207442718,-3.135533571243286,-0.45783576369285583,1.950021505355835,-0.11110623180866241,-0.9056239128112793,0.1530797779560089
1740157908227442718,-3.135065793991089,-0.4524284601211548,1.9495913982391357,-0.1122106984257698,-0.8999074697494507,0.15430624783039093
1740157908247442718,-3.1345977783203125,-0.4470723271369934,1.949137806892395,-0.11334584653377533,-0.8941789865493774,0.15555211901664734
1740157908267442718,-3.134122371673584,-0.44171616435050964,1.9486452341079712,-0.11448099464178085,-0.8884265422821045,0.15677931904792786
1740157908287442718,-3.133639097213745,-0.4364047646522522,1.9481055736541748,-0.11566215753555298,-0.8826741576194763,0.15812154114246368
1740157908307442718,-3.1331558227539062,-0.4310997426509857,1.9475269317626953,-0.1168433204293251,-0.876873791217804,0.15942639112472534
1740157908327442718,-3.1326727867126465,-0.42583948373794556,1.9469090700149536,-0.1180398240685463,-0.8711093664169312,0.16074968874454498
1740157908347442718,-3.1321895122528076,-0.4206111431121826,1.9462521076202393,-0.11923633515834808,-0.8653329610824585,0.1620924025774002
1740157908367442718,-3.1317138671875,-0.4153956174850464,1.9455561637878418,-0.12047885358333588,-0.8594846725463867,0.16345572471618652
1740157908387442718,-3.1312384605407715,-0.4102248251438141,1.9448132514953613,-0.12172137945890427,-0.8536363840103149,0.1648574024438858
1740157908407442718,-3.1307475566864014,-0.4050668179988861,1.9440077543258667,-0.12297924607992172,-0.8477880358695984,0.16627824306488037
1740157908427442718,-3.1302642822265625,-0.3999471664428711,1.9431710243225098,-0.12426778674125671,-0.8419517278671265,0.16773721575737
1740157908447442718,-3.129788875579834,-0.394878625869751,1.9423264265060425,-0.12558701634407043,-0.8361034393310547,0.16917723417282104
1740157908467442718,-3.1293132305145264,-0.38981008529663086,1.9414348602294922,-0.12692157924175262,-0.8302551507949829,0.17065560817718506
1740157908487442718,-3.128845453262329,-0.3847799301147461,1.9404964447021484,-0.12825614213943481,-0.8244308233261108,0.17215268313884735
1740157908507442718,-3.128377676010132,-0.3797753155231476,1.939518928527832,-0.12962138652801514,-0.818522572517395,0.17367060482501984
1740157908527442718,-3.1278867721557617,-0.3748026490211487,1.9384788274765015,-0.13100196421146393,-0.8126024007797241,0.17516958713531494
1740157908547442718,-3.1273882389068604,-0.3698875308036804,1.9374231100082397,-0.13241322338581085,-0.806718111038208,0.17674455046653748
1740157908567442718,-3.1269125938415527,-0.3649660050868988,1.9363281726837158,-0.13383983075618744,-0.8007739186286926,0.17839741706848145
1740157908587442718,-3.126429319381714,-0.3600892126560211,1.9351942539215088,-0.13529711961746216,-0.7948417663574219,0.17999252676963806
1740157908607442718,-3.1259539127349854,-0.3552507758140564,1.9339977502822876,-0.13678507506847382,-0.7889454960823059,0.18164442479610443
1740157908627442718,-3.1254706382751465,-0.3504379093647003,1.932723045349121,-0.13828837871551514,-0.7829893827438354,0.18333587050437927
1740157908647442718,-3.1249873638153076,-0.34566980600357056,1.9314171075820923,-0.1398223489522934,-0.7769972681999207,0.1850472241640091
1740157908667442718,-3.124504327774048,-0.340933620929718,1.9300798177719116,-0.14138701558113098,-0.7710410952568054,0.18679620325565338
1740157908687442718,-3.1240286827087402,-0.33620384335517883,1.9287112951278687,-0.14296701550483704,-0.7650729417800903,0.188507080078125
1740157908707442718,-3.1235532760620117,-0.3315316140651703,1.9273114204406738,-0.14456236362457275,-0.7590808272361755,0.19031429290771484
1740157908727442718,-3.123070001602173,-0.3268721401691437,1.9258646965026855,-0.14620371162891388,-0.7531126737594604,0.19214020669460297
1740157908747442718,-3.1225790977478027,-0.32226380705833435,1.9243866205215454,-0.14787575602531433,-0.7471804618835449,0.19400374591350555
1740157908767442718,-3.122103691101074,-0.3177066147327423,1.9228851795196533,-0.14957846701145172,-0.7411763668060303,0.1959262639284134
1740157908787442718,-3.1216204166412354,-0.3131430149078369,1.9213210344314575,-0.15129652619361877,-0.7351602911949158,0.19784902036190033
1740157908807442718,-3.1211295127868652,-0.30863693356513977,1.9196866750717163,-0.1530299335718155,-0.7291921973228455,0.19980914890766144
1740157908827442718,-3.1206462383270264,-0.304169237613678,1.9180052280426025,-0.15482468903064728,-0.7231640815734863,0.2018088400363922
1740157908847442718,-3.1201632022857666,-0.2997142970561981,1.9162769317626953,-0.15663479268550873,-0.7171599864959717,0.20384639501571655
1740157908867442718,-3.119687557220459,-0.29531049728393555,1.914533019065857,-0.15849089622497559,-0.711155891418457,0.2058839648962021
1740157908887442718,-3.119196653366089,-0.2909705936908722,1.9127813577651978,-0.1603623628616333,-0.7051517963409424,0.20794068276882172
1740157908907442718,-3.1187057495117188,-0.2866179347038269,1.9109748601913452,-0.16227982938289642,-0.6990997791290283,0.2100559026002884
1740157908927442718,-3.118222713470459,-0.28231000900268555,1.9091213941574097,-0.16422799229621887,-0.693071722984314,0.21226651966571808
1740157908947442718,-3.1177241802215576,-0.27805960178375244,1.9072132110595703,-0.16622216999530792,-0.6870556473731995,0.2144385427236557
1740157908967442718,-3.1172256469726562,-0.27382197976112366,1.9052190780639648,-0.16823168098926544,-0.6810275912284851,0.21668748557567596
1740157908987442718,-3.1167423725128174,-0.2696418762207031,1.9032093286514282,-0.17030255496501923,-0.6750234961509705,0.21899349987506866
1740157909007442718,-3.1162590980529785,-0.26550012826919556,1.9011915922164917,-0.17240411043167114,-0.6690673232078552,0.22131772339344025
1740157909027442718,-3.1157758235931396,-0.261358380317688,1.8991271257400513,-0.17455168068408966,-0.663027286529541,0.22372032701969147
1740157909047442718,-3.1152772903442383,-0.25727415084838867,1.8970390558242798,-0.1767299324274063,-0.6569632291793823,0.22616174817085266
1740157909067442718,-3.114786386489868,-0.25325384736061096,1.8949041366577148,-0.17895421385765076,-0.6509471535682678,0.22860221564769745
1740157909087442718,-3.114295721054077,-0.24923352897167206,1.8926910161972046,-0.18120916187763214,-0.6449071168899536,0.23113903403282166
1740157909107442718,-3.113804817199707,-0.24526436626911163,1.890423059463501,-0.1835254728794098,-0.6388550996780396,0.23367609083652496
1740157909127442718,-3.113313913345337,-0.2413463145494461,1.8881473541259766,-0.18587246537208557,-0.6328749656677246,0.23625007271766663
1740157909147442718,-3.112823009490967,-0.23746022582054138,1.8858481645584106,-0.18828080594539642,-0.62687087059021,0.2389395534992218
1740157909167442718,-3.1123244762420654,-0.23357415199279785,1.8835177421569824,-0.19075052440166473,-0.6208308339118958,0.24164895713329315
1740157909187442718,-3.111825942993164,-0.22976475954055786,1.8811326026916504,-0.19325090944766998,-0.6147907376289368,0.24441587924957275
1740157909207442718,-3.111335039138794,-0.22599372267723083,1.8786691427230835,-0.1958126574754715,-0.6087866425514221,0.2472395896911621
1740157909227442718,-3.110844135284424,-0.22223547101020813,1.8761667013168335,-0.1984204202890396,-0.6027466058731079,0.2501215636730194
1740157909247442718,-3.1103687286376953,-0.21853473782539368,1.8736563920974731,-0.201089546084404,-0.596766471862793,0.25304070115089417
1740157909267442718,-3.1098854541778564,-0.21489153802394867,1.8711382150650024,-0.20380470156669617,-0.590786337852478,0.2560173273086548
1740157909287442718,-3.1094021797180176,-0.21125473082065582,1.8685575723648071,-0.20656585693359375,-0.5847702622413635,0.2591097354888916
1740157909307442718,-3.1089112758636475,-0.20764347910881042,1.8658829927444458,-0.20940372347831726,-0.578754186630249,0.26218298077583313
1740157909327442718,-3.1084203720092773,-0.20410893857479095,1.8631927967071533,-0.21228760480880737,-0.5727381110191345,0.26537126302719116
1740157909347442718,-3.1079373359680176,-0.20059995353221893,1.86049485206604,-0.2152481973171234,-0.5667459964752197,0.26863574981689453
1740157909367442718,-3.107438802719116,-0.1971101462841034,1.8577576875686646,-0.218285471200943,-0.5607299208641052,0.27193909883499146
1740157909387442718,-3.1069324016571045,-0.19368425011634827,1.8549580574035645,-0.22138412296772003,-0.5547617673873901,0.27527981996536255
1740157909407442718,-3.106433868408203,-0.19030949473381042,1.8521114587783813,-0.22454412281513214,-0.5488055944442749,0.27873533964157104
1740157909427442718,-3.1059353351593018,-0.18696030974388123,1.849249243736267,-0.22778081893920898,-0.5428014993667603,0.2822110056877136
1740157909447442718,-3.1054368019104004,-0.183617502450943,1.846355676651001,-0.2310788780450821,-0.5368333458900452,0.28583934903144836
1740157909467442718,-3.104938268661499,-0.1803322285413742,1.8434152603149414,-0.23443830013275146,-0.5308772325515747,0.2894866168498993
1740157909487442718,-3.104447364807129,-0.177117258310318,1.8403966426849365,-0.23788975179195404,-0.5249210596084595,0.2932489514350891
1740157909507442718,-3.103956699371338,-0.17390868067741394,1.8373467922210693,-0.241433247923851,-0.518988847732544,0.29708749055862427
1740157909527442718,-3.1034657955169678,-0.17073845863342285,1.834273338317871,-0.24506878852844238,-0.5130926370620728,0.301040381193161
1740157909547442718,-3.102982521057129,-0.16763214766979218,1.8312000036239624,-0.24879635870456696,-0.5071963667869568,0.3050699532032013
1740157909567442718,-3.1024763584136963,-0.16457056999206543,1.8280562162399292,-0.25260064005851746,-0.5012401938438416,0.30913907289505005
1740157909587442718,-3.101977825164795,-0.16152818500995636,1.8248499631881714,-0.25649693608283997,-0.4953320026397705,0.3133222758769989
1740157909607442718,-3.1014716625213623,-0.15849857032299042,1.8216279745101929,-0.2604699432849884,-0.4894237816333771,0.31760138273239136
1740157909627442718,-3.100980758666992,-0.15552647411823273,1.8183982372283936,-0.26456567645072937,-0.4835035800933838,0.3219957649707794
1740157909647442718,-3.100482225418091,-0.15263748168945312,1.8150901794433594,-0.26875343918800354,-0.47764328122138977,0.3265039920806885
1740157909667442718,-3.0999836921691895,-0.14975488185882568,1.8117352724075317,-0.27306392788887024,-0.471794992685318,0.33110785484313965
1740157909687442718,-3.0994772911071777,-0.14689144492149353,1.8083491325378418,-0.27746644616127014,-0.46591073274612427,0.3358658254146576
1740157909707442718,-3.0989863872528076,-0.14409832656383514,1.8049472570419312,-0.2819916903972626,-0.4600384533405304,0.3406810760498047
1740157909727442718,-3.0984878540039062,-0.14135633409023285,1.801482915878296,-0.2866089940071106,-0.45420214533805847,0.34564903378486633
1740157909747442718,-3.0979971885681152,-0.13863351941108704,1.7979872226715088,-0.29136431217193604,-0.44838979840278625,0.3508082330226898
1740157909767442718,-3.097506284713745,-0.135949045419693,1.7944759130477905,-0.29625773429870605,-0.44260141253471375,0.3559861183166504
1740157909787442718,-3.097015380859375,-0.13330292701721191,1.7909098863601685,-0.3012738525867462,-0.43683698773384094,0.3612977862358093
1740157909807442718,-3.0965168476104736,-0.13068877160549164,1.7872968912124634,-0.3064280152320862,-0.4311085343360901,0.36685797572135925
1740157909827442718,-3.096010684967041,-0.12813213467597961,1.7836604118347168,-0.31172025203704834,-0.4253201484680176,0.3725152611732483
1740157909847442718,-3.0955042839050293,-0.1256074607372284,1.7800005674362183,-0.31716588139533997,-0.4195437431335449,0.37830650806427
1740157909867442718,-3.095005750656128,-0.12312113493680954,1.7762467861175537,-0.32276490330696106,-0.4138033092021942,0.3842504322528839
1740157909887442718,-3.0945072174072266,-0.12067954987287521,1.7724617719650269,-0.32854801416397095,-0.40805089473724365,0.39034804701805115
1740157909907442718,-3.094001054763794,-0.11829549074172974,1.7686923742294312,-0.33445385098457336,-0.4023224115371704,0.39663687348365784
1740157909927442718,-3.09348726272583,-0.11593060195446014,1.7648838758468628,-0.3405283987522125,-0.39664191007614136,0.4030781388282776
1740157909947442718,-3.0929808616638184,-0.11361045390367508,1.7609738111495972,-0.34678706526756287,-0.3909973204135895,0.4096721112728119
1740157909967442718,-3.0924746990203857,-0.11132866144180298,1.757063627243042,-0.3532451093196869,-0.3853287994861603,0.41645827889442444
1740157909987442718,-3.091968536376953,-0.10908520966768265,1.7531613111495972,-0.35987192392349243,-0.3796842098236084,0.4234549105167389
1740157910007442718,-3.0914623737335205,-0.10688011348247528,1.7491416931152344,-0.36669811606407166,-0.3740636110305786,0.4307003617286682
1740157910027442718,-3.0909483432769775,-0.10470058023929596,1.7451063394546509,-0.3737851083278656,-0.3684549927711487,0.4381372928619385
1740157910047442718,-3.090449810028076,-0.10258496552705765,1.7410633563995361,-0.381071537733078,-0.36289432644844055,0.4457266628742218
1740157910067442718,-3.089951276779175,-0.1005396619439125,1.7369811534881592,-0.3885573446750641,-0.3573935627937317,0.4535449147224426
1740157910087442718,-3.089468240737915,-0.0986030101776123,1.7330005168914795,-0.39613521099090576,-0.3520725667476654,0.46147462725639343
1740157910107442718,-3.0890309810638428,-0.09689006209373474,1.7293719053268433,-0.4033602774143219,-0.3471111059188843,0.46899452805519104
1740157910127442718,-3.088670492172241,-0.09547112882137299,1.7262907028198242,-0.40952688455581665,-0.34297654032707214,0.47540485858917236
1740157910147442718,-3.0883944034576416,-0.09441012889146805,1.7239446640014648,-0.4141288101673126,-0.3399205505847931,0.4801638126373291
1740157910167442718,-3.0881948471069336,-0.09366870671510696,1.7224041223526,-0.41699737310409546,-0.3379911184310913,0.4831553101539612
1740157910207442718,-3.088026285171509,-0.09293366968631744,1.7210277318954468,-0.4190375506877899,-0.3365410268306732,0.4852551817893982
1740157910367442718,-3.087796211242676,-0.09194297343492508,1.719205617904663,-0.42209017276763916,-0.33435988426208496,0.48875027894973755
1740157910387442718,-3.0875813961029053,-0.09116320312023163,1.7174850702285767,-0.4255569577217102,-0.3322027325630188,0.4924749732017517
1740157910407442718,-3.087282180786133,-0.09008941799402237,1.7149747610092163,-0.43094125390052795,-0.32896697521209717,0.4981003403663635
1740157910427442718,-3.0869064331054688,-0.08879192173480988,1.7117215394973755,-0.4380742609500885,-0.32485640048980713,0.50556480884552
1740157910447442718,-3.086484670639038,-0.08730907738208771,1.7079365253448486,-0.4465571641921997,-0.32013460993766785,0.5143646597862244
1740157910467442718,-3.086001396179199,-0.08567921817302704,1.7038465738296509,-0.4559144675731659,-0.31511321663856506,0.5240333080291748
1740157910487442718,-3.0855181217193604,-0.0840110182762146,1.6994984149932861,-0.46574726700782776,-0.30987611413002014,0.5342622995376587
1740157910507442718,-3.085019588470459,-0.0823364183306694,1.695033073425293,-0.47602495551109314,-0.3046150505542755,0.5449327826499939
1740157910527442718,-3.0845210552215576,-0.08066821843385696,1.690551996231079,-0.48667076230049133,-0.2993779182434082,0.5559862852096558
1740157910547442718,-3.0840072631835938,-0.0790383592247963,1.6859771013259888,-0.49771544337272644,-0.29420074820518494,0.5674605369567871
1740157910567442718,-3.083493232727051,-0.07745324820280075,1.6813632249832153,-0.50922030210495,-0.2890355587005615,0.5792796015739441
1740157910587442718,-3.082987070083618,-0.07591287791728973,1.6767492294311523,-0.5210933089256287,-0.2839542329311371,0.5914996862411499
1740157910607442718,-3.0824732780456543,-0.07442363351583481,1.6720649003982544,-0.5333958268165588,-0.27894482016563416,0.6042360067367554
1740157910627442718,-3.08195161819458,-0.07297913730144501,1.6673648357391357,-0.5461432337760925,-0.2739593982696533,0.6173361539840698
1740157910647442718,-3.081437826156616,-0.07157298922538757,1.662649154663086,-0.5593814849853516,-0.2689739465713501,0.631030797958374
1740157910667442718,-3.0809237957000732,-0.0702051892876625,1.6578788757324219,-0.573125958442688,-0.26404842734336853,0.6452035903930664
1740157910687442718,-3.0804100036621094,-0.0688757374882698,1.6530693769454956,-0.5873919725418091,-0.25919482111930847,0.6598926782608032
1740157910707442718,-3.0798962116241455,-0.06757185608148575,1.6482129096984863,-0.6021948456764221,-0.2543891370296478,0.6751368045806885
1740157910727442718,-3.0793821811676025,-0.06631271541118622,1.6433018445968628,-0.6175346970558167,-0.24963140487670898,0.6909361481666565
1740157910747442718,-3.078883647918701,-0.06509830802679062,1.6384062767028809,-0.6335187554359436,-0.24496954679489136,0.7072703838348389
1740157910767442718,-3.0783851146698,-0.06392864882946014,1.6334247589111328,-0.6501010656356812,-0.24035562574863434,0.7242172956466675
1740157910787442718,-3.077878952026367,-0.06279733777046204,1.6284353733062744,-0.6673123836517334,-0.23583756387233734,0.74187171459198
1740157910807442718,-3.0773727893829346,-0.06174272671341896,1.623492956161499,-0.6850605010986328,-0.2314034104347229,0.7601380944252014
1740157910827442718,-3.076904773712158,-0.060822341591119766,1.6187539100646973,-0.7027472853660583,-0.22723288834095,0.7782265543937683
1740157910847442718,-3.07649827003479,-0.06005534902215004,1.6146013736724854,-0.7188387513160706,-0.22364960610866547,0.7946351766586304
1740157910867442718,-3.076176166534424,-0.05944814905524254,1.6112698316574097,-0.7317855954170227,-0.2208213359117508,0.8077689409255981
1740157910887442718,-3.0759384632110596,-0.0589943453669548,1.608892560005188,-0.7406826615333557,-0.21890385448932648,0.8168002367019653
1740157910907442718,-3.075777292251587,-0.058649200946092606,1.6074457168579102,-0.7456987500190735,-0.2177773416042328,0.8218273520469666
1740157910927442718,-3.0756852626800537,-0.058406319469213486,1.6066559553146362,-0.7479690909385681,-0.21726201474666595,0.8241386413574219
1740157911247442718,-3.0756163597106934,-0.058214571326971054,1.606178879737854,-0.749457061290741,-0.21684257686138153,0.8259686231613159
1740157911287442718,-3.07552433013916,-0.05788220837712288,1.6051700115203857,-0.7533073425292969,-0.21594375371932983,0.8299940824508667
1740157911307442718,-3.0753631591796875,-0.057556238025426865,1.603582501411438,-0.759458601474762,-0.21470938622951508,0.836346447467804
1740157911327442718,-3.075117826461792,-0.057128001004457474,1.6011269092559814,-0.7696748971939087,-0.21279190480709076,0.8468542695045471
1740157911347442718,-3.074803352355957,-0.05663584917783737,1.5978424549102783,-0.7839102149009705,-0.2102632373571396,0.8614392876625061
1740157911367442718,-3.074427366256714,-0.05609895661473274,1.5939478874206543,-0.8011981844902039,-0.20735105872154236,0.8790808320045471
1740157911387442718,-3.074028730392456,-0.05548536404967308,1.589701533317566,-0.8202502727508545,-0.2042711228132248,0.8984513878822327
1740157911407442718,-3.073599100112915,-0.05483981594443321,1.5852986574172974,-0.8400385975837708,-0.20119117200374603,0.9185697436332703
1740157911427442718,-3.0731773376464844,-0.05421343818306923,1.5808489322662354,-0.8600877523422241,-0.19821909070014954,0.9389544725418091
1740157911447442718,-3.072763204574585,-0.05361902341246605,1.5765165090560913,-0.8802595734596252,-0.19536684453487396,0.959413468837738
1740157911467442718,-3.072364330291748,-0.05306295305490494,1.5722544193267822,-0.9004774689674377,-0.19264641404151917,0.9799465537071228
1740157911487442718,-3.0719730854034424,-0.05255162715911865,1.5680627822875977,-0.9206799864768982,-0.19006980955600739,1.0004767179489136
1740157911507442718,-3.0715973377227783,-0.05206586420536041,1.5640040636062622,-0.9409285187721252,-0.18766097724437714,1.0211377143859863
1740157911527442718,-3.071213722229004,-0.051624845713377,1.5600078105926514,-0.9612077474594116,-0.18536001443862915,1.0417391061782837
1740157911547442718,-3.07083797454834,-0.05120300129055977,1.5560507774353027,-0.9814409613609314,-0.1832028478384018,1.0623184442520142
1740157911567442718,-3.0704851150512695,-0.05081311613321304,1.552195429801941,-1.0016895532608032,-0.1812014877796173,1.082875370979309
1740157911587442718,-3.070132255554199,-0.050455186516046524,1.5484495162963867,-1.0219533443450928,-0.17929598689079285,1.103334665298462
1740157911607442718,-3.0698025226593018,-0.0501803494989872,1.5448442697525024,-1.0418184995651245,-0.1775582879781723,1.1234453916549683
1740157911627442718,-3.069518804550171,-0.04996942728757858,1.5416224002838135,-1.0600727796554565,-0.17604826390743256,1.1419792175292969
1740157911647442718,-3.0692808628082275,-0.04978406801819801,1.5390104055404663,-1.0751057863235474,-0.1748618334531784,1.1571509838104248
1740157911667442718,-3.0691044330596924,-0.04963706433773041,1.537117838859558,-1.0858590602874756,-0.17399896681308746,1.1680020093917847
1740157911687442718,-3.0689895153045654,-0.04950923100113869,1.5359135866165161,-1.0921483039855957,-0.17349563539028168,1.17435884475708
1740157911707442718,-3.0689127445220947,-0.04938779026269913,1.5352331399917603,-1.0950936079025269,-0.17325595021247864,1.1773357391357422
1740157911767442718,-3.0688514709472656,-0.04927274212241173,1.5347795486450195,-1.0968116521835327,-0.17307618260383606,1.1792185306549072
1740157911967442718,-3.0688283443450928,-0.049144912511110306,1.5343573093414307,-1.0990359783172607,-0.17292039096355438,1.181791067123413
1740157911987442718,-3.068751811981201,-0.04903625324368477,1.5334736108779907,-1.103591799736023,-0.17252489924430847,1.1865543127059937
1740157912007442718,-3.0686137676239014,-0.04890842363238335,1.5319643020629883,-1.1121667623519897,-0.17190173268318176,1.1953872442245483
1740157912027442718,-3.0684218406677246,-0.04878698289394379,1.5297902822494507,-1.1250675916671753,-0.17109878361225128,1.2084803581237793
1740157912047442718,-3.068176507949829,-0.04867832362651825,1.527107834815979,-1.141603946685791,-0.17010408639907837,1.225239872932434
1740157912067442718,-3.0679004192352295,-0.04855049401521683,1.5240501165390015,-1.1603184938430786,-0.16903749108314514,1.2441099882125854
1740157912087442718,-3.06762433052063,-0.04840348660945892,1.520804762840271,-1.1799380779266357,-0.16798289120197296,1.2639961242675781
1740157912107442718,-3.06734037399292,-0.04828204587101936,1.5176140069961548,-1.1994043588638306,-0.1669762134552002,1.283670425415039
1740157912127442718,-3.0671026706695557,-0.04818617179989815,1.5147987604141235,-1.2168610095977783,-0.16614930331707,1.3012510538101196
1740157912147442718,-3.066910982131958,-0.048109475523233414,1.5125542879104614,-1.230712890625,-0.16551414132118225,1.3151462078094482
1740157912167442718,-3.066765308380127,-0.048045556992292404,1.5109823942184448,-1.2401314973831177,-0.16511864960193634,1.3245306015014648
1740157912187442718,-3.0666654109954834,-0.04794968292117119,1.5100048780441284,-1.2453010082244873,-0.16486698389053345,1.3296936750411987
1740157912207442718,-3.0666117668151855,-0.04786020144820213,1.5094653367996216,-1.2475866079330444,-0.16473515331745148,1.331997275352478
1740157913247442718,-3.066588878631592,-0.04788576811552048,1.5104193687438965,-1.243383526802063,-0.16469921171665192,1.3285081386566162
1740157913267442718,-3.0666348934173584,-0.047994423657655716,1.5117722749710083,-1.235192060470581,-0.1648310273885727,1.3199535608291626
1740157913287442718,-3.0668036937713623,-0.04810308292508125,1.5137821435928345,-1.22267484664917,-0.1654781848192215,1.307055115699768
1740157913307442718,-3.067049026489258,-0.04820534586906433,1.5163549184799194,-1.2063839435577393,-0.16630509495735168,1.2904525995254517
1740157913327442718,-3.0673482418060303,-0.04832678660750389,1.5193188190460205,-1.1877614259719849,-0.16733573377132416,1.2716022729873657
1740157913347442718,-3.067654848098755,-0.04849296808242798,1.5225642919540405,-1.1680957078933716,-0.16851018369197845,1.2516753673553467
1740157913367442718,-3.0679924488067627,-0.04869110882282257,1.5259974002838135,-1.1480005979537964,-0.1697445660829544,1.2312679290771484
1740157913387442718,-3.068345308303833,-0.04892759770154953,1.5294930934906006,-1.1277366876602173,-0.17105084657669067,1.2107247114181519
1740157913407442718,-3.068636655807495,-0.04917686805129051,1.5330044031143188,-1.1074727773666382,-0.17245300114154816,1.1901030540466309
1740157913427442718,-3.0689971446990967,-0.04939418286085129,1.5364843606948853,-1.0874850749969482,-0.1738911122083664,1.169825792312622
1740157913447442718,-3.069296360015869,-0.049566756933927536,1.5396907329559326,-1.0688011646270752,-0.17528127133846283,1.1510642766952515
1740157913467442718,-3.069518804550171,-0.049732938408851624,1.542380928993225,-1.053185224533081,-0.17645573616027832,1.135298252105713
1740157913487442718,-3.0697181224823,-0.04987355321645737,1.5444064140319824,-1.0416803359985352,-0.17737852036952972,1.123813271522522
1740157913507442718,-3.069840908050537,-0.05000138282775879,1.5457435846328735,-1.0346393585205078,-0.17796574532985687,1.1166492700576782
1740157913527442718,-3.0699329376220703,-0.05014199763536453,1.5465022325515747,-1.0312186479568481,-0.17828932404518127,1.1131147146224976
1740157913567442718,-3.0700018405914307,-0.050282612442970276,1.5470573902130127,-1.0293165445327759,-0.1784810721874237,1.1111167669296265
1740157915507442718,-3.0672943592071533,-0.050646934658288956,1.5468697547912598,-1.033642292022705,-0.18047045171260834,1.1148159503936768
1740157915527442718,-3.064817190170288,-0.051119912415742874,1.5466039180755615,-1.039394736289978,-0.182699516415596,1.120792269706726
1740157915547442718,-3.0613503456115723,-0.051791027188301086,1.5462206602096558,-1.0477089881896973,-0.1859232634305954,1.1294139623641968
1740157915567442718,-3.057039737701416,-0.05265389382839203,1.545681118965149,-1.058078646659851,-0.19000989198684692,1.1398975849151611
1740157915587442718,-3.052077293395996,-0.053644586354494095,1.545032024383545,-1.0695221424102783,-0.19469572603702545,1.151423692703247
1740157915607442718,-3.04665470123291,-0.05476311594247818,1.5443124771118164,-1.081165075302124,-0.1997770369052887,1.163095474243164
1740157915627442718,-3.0410327911376953,-0.055958341807127,1.5435383319854736,-1.0924397706985474,-0.20497818291187286,1.1744579076766968
1740157915647442718,-3.0354413986206055,-0.05717913433909416,1.5427249670028687,-1.1031930446624756,-0.21017934381961823,1.1852835416793823
1740157915667442718,-3.0302488803863525,-0.058348797261714935,1.5419117212295532,-1.1131179332733154,-0.2151528000831604,1.1952699422836304
1740157915687442718,-3.0257081985473633,-0.05939701572060585,1.5411609411239624,-1.121585488319397,-0.21950307488441467,1.2036964893341064
1740157915707442718,-3.0220344066619873,-0.06024709716439247,1.540550947189331,-1.1281355619430542,-0.2229425460100174,1.2101471424102783
1740157915727442718,-3.0193729400634766,-0.06086068972945213,1.5401443243026733,-1.1324766874313354,-0.22535137832164764,1.2144707441329956
1740157915747442718,-3.017608880996704,-0.061237793415784836,1.5399253368377686,-1.1348390579223633,-0.2267894744873047,1.216858148574829
1740157915867442718,-3.015913724899292,-0.06156376376748085,1.5396907329559326,-1.1364496946334839,-0.22802385687828064,1.2186357975006104
1740157916047442718,-3.0127153396606445,-0.062254056334495544,1.5392918586730957,-1.1403000354766846,-0.23079220950603485,1.2226454019546509
1740157916067442718,-3.010000228881836,-0.06293155997991562,1.5388226509094238,-1.144288420677185,-0.23336881399154663,1.2266781330108643
1740157916087442718,-3.0063724517822266,-0.06387751549482346,1.5381267070770264,-1.1498414278030396,-0.23692813515663147,1.232301950454712
1740157916107442718,-3.001969814300537,-0.06504078954458237,1.537235140800476,-1.1565449237823486,-0.24125443398952484,1.239003300666809
1740157916127442718,-2.9969613552093506,-0.06638301908969879,1.536218523979187,-1.1637699604034424,-0.2460840791463852,1.2462314367294312
1740157916147442718,-2.9915847778320312,-0.06784669309854507,1.5351158380508423,-1.1710410118103027,-0.2512253224849701,1.2536066770553589
1740157916167442718,-2.9860317707061768,-0.06938706338405609,1.5339584350585938,-1.1781740188598633,-0.25651034712791443,1.2607300281524658
1740157916187442718,-2.9804327487945557,-0.07096578925848007,1.5327463150024414,-1.1850769519805908,-0.26179540157318115,1.2676422595977783
1740157916207442718,-2.974810838699341,-0.07258286327123642,1.5314950942993164,-1.1916884183883667,-0.26709243655204773,1.2743432521820068
1740157916227442718,-2.9692270755767822,-0.07423188537359238,1.5302125215530396,-1.19806969165802,-0.272413432598114,1.2807563543319702
1740157916247442718,-2.9636664390563965,-0.07591287791728973,1.5288987159729004,-1.2042056322097778,-0.2777823507785797,1.2868807315826416
1740157916267442718,-2.958113431930542,-0.07763860374689102,1.5275458097457886,-1.210080862045288,-0.28306740522384644,1.2927958965301514
1740157916287442718,-2.952544927597046,-0.07938350737094879,1.5261616706848145,-1.2157411575317383,-0.288364440202713,1.2985190153121948
1740157916307442718,-2.947007417678833,-0.08117315173149109,1.5247148275375366,-1.221171498298645,-0.2936854362487793,1.3040117025375366
1740157916327442718,-2.9415156841278076,-0.08300753682851791,1.5232211351394653,-1.2264484167099,-0.2989464998245239,1.3093137741088867
1740157916347442718,-2.9360623359680176,-0.08488666266202927,1.5216805934906006,-1.2315565347671509,-0.3041955828666687,1.3144434690475464
1740157916367442718,-2.9306321144104004,-0.0867849662899971,1.5200930833816528,-1.236465334892273,-0.30942070484161377,1.319362759590149
1740157916387442718,-2.9251787662506104,-0.08870883285999298,1.5184977054595947,-1.2412053346633911,-0.31471773982048035,1.3241080045700073
1740157916407442718,-2.919717788696289,-0.09066465497016907,1.5168633460998535,-1.24580717086792,-0.3199668228626251,1.328719973564148
1740157916427442718,-2.914287567138672,-0.0926460474729538,1.51518976688385,-1.2502710819244385,-0.32515600323677063,1.3331990242004395
1740157916447442718,-2.908895492553711,-0.09467218071222305,1.5134849548339844,-1.2546123266220093,-0.33036914467811584,1.3375816345214844
1740157916467442718,-2.9035496711730957,-0.09673666954040527,1.511741042137146,-1.2588000297546387,-0.3355942666530609,1.3417723178863525
1740157916487442718,-2.898226737976074,-0.09883949905633926,1.509926676750183,-1.2628498077392578,-0.3407354950904846,1.345868706703186
1740157916507442718,-2.8928961753845215,-0.10096150636672974,1.5080498456954956,-1.26677668094635,-0.3458767235279083,1.3498501777648926
1740157916527442718,-2.8875503540039062,-0.10311546921730042,1.5061495304107666,-1.2706116437911987,-0.3510299324989319,1.3536970615386963
1740157916547442718,-2.8822503089904785,-0.10528860986232758,1.504225730895996,-1.2743393182754517,-0.3562191128730774,1.3574857711791992
1740157916567442718,-2.8769965171813965,-0.10751288384199142,1.502278447151184,-1.2779594659805298,-0.36130040884017944,1.3611232042312622
1740157916587442718,-2.8717808723449707,-0.1097818911075592,1.5002843141555786,-1.2814875841140747,-0.3663817346096039,1.3646647930145264
1740157916607442718,-2.8665730953216553,-0.11207008361816406,1.4982432126998901,-1.284923791885376,-0.3714750409126282,1.3681294918060303
1740157916627442718,-2.8613498210906982,-0.11440300941467285,1.4961473941802979,-1.288283109664917,-0.37654435634613037,1.3715753555297852
1740157916647442718,-2.8561344146728516,-0.11676789820194244,1.4940046072006226,-1.2915505170822144,-0.38154178857803345,1.37488853931427
1740157916667442718,-2.8509418964385986,-0.11914557218551636,1.4918383359909058,-1.294741153717041,-0.38653919100761414,1.3781441450119019
1740157916687442718,-2.8458030223846436,-0.121536023914814,1.4896173477172852,-1.2978551387786865,-0.3915725648403168,1.3812649250030518
1740157916707442718,-2.840702533721924,-0.12398400157690048,1.4873651266098022,-1.3009231090545654,-0.39661794900894165,1.3843278884887695
1740157916727442718,-2.835624933242798,-0.1264767199754715,1.4851129055023193,-1.3039144277572632,-0.4015794098377228,1.3873732089996338
1740157916747442718,-2.8305399417877197,-0.12899500131607056,1.48276686668396,-1.3068289756774902,-0.4065169095993042,1.3903424739837646
1740157916767442718,-2.8254470825195312,-0.13151328265666962,1.4803894758224487,-1.3097128868103027,-0.4114783704280853,1.3931769132614136
1740157916787442718,-2.820392608642578,-0.1340763121843338,1.4779573678970337,-1.312504768371582,-0.41636794805526733,1.3960704803466797
1740157916807442718,-2.815391778945923,-0.1366840898990631,1.475509524345398,-1.3152505159378052,-0.4211975932121277,1.3988500833511353
1740157916827442718,-2.810429334640503,-0.13932381570339203,1.4730461835861206,-1.3179503679275513,-0.42602720856666565,1.4016106128692627
1740157916847442718,-2.8054821491241455,-0.14200827479362488,1.47052800655365,-1.3206040859222412,-0.4309048056602478,1.4042741060256958
1740157916867442718,-2.800527572631836,-0.1447119116783142,1.4679473638534546,-1.323196530342102,-0.435746431350708,1.40690016746521
1740157916887442718,-2.795565128326416,-0.14741556346416473,1.4653197526931763,-1.3257429599761963,-0.44052812457084656,1.4094698429107666
1740157916907442718,-2.7906410694122314,-0.1501447707414627,1.4626530408859253,-1.3282586336135864,-0.4453098475933075,1.4119818210601807
1740157916927442718,-2.7857398986816406,-0.15293149650096893,1.4599628448486328,-1.3307284116744995,-0.4500795602798462,1.4144750833511353
1740157916947442718,-2.780900239944458,-0.15575018525123596,1.4572179317474365,-1.3331520557403564,-0.4548253118991852,1.4169878959655762
1740157916967442718,-2.7760910987854004,-0.15858805179595947,1.4544260501861572,-1.3355298042297363,-0.4594871699810028,1.4194066524505615
1740157916987442718,-2.771282196044922,-0.16145148873329163,1.4516029357910156,-1.337876796722412,-0.4641490578651428,1.4218252897262573
1740157917007442718,-2.7664730548858643,-0.16434048116207123,1.4487407207489014,-1.3401930332183838,-0.46884685754776,1.4241857528686523
1740157917027442718,-2.7616794109344482,-0.1672678291797638,1.4458394050598145,-1.3424787521362305,-0.47355666756629944,1.4265458583831787
1740157917047442718,-2.7569241523742676,-0.1702399104833603,1.4428989887237549,-1.344718337059021,-0.4781585931777954,1.4288506507873535
1740157917067442718,-2.7522146701812744,-0.17323116958141327,1.4399194717407227,-1.3469579219818115,-0.4827485680580139,1.4311364889144897
1740157917087442718,-2.7475438117980957,-0.1762288361787796,1.4369007349014282,-1.3491668701171875,-0.4873504936695099,1.4334220886230469
1740157917107442718,-2.7428882122039795,-0.17925843596458435,1.4338196516036987,-1.3513450622558594,-0.4919165074825287,1.4356509447097778
1740157917127442718,-2.7382326126098633,-0.18232640624046326,1.4306914806365967,-1.3535079956054688,-0.4964345395565033,1.4378423690795898
1740157917147442718,-2.7335691452026367,-0.18542632460594177,1.4275399446487427,-1.3556249141693115,-0.5009166598320007,1.440015435218811
1740157917167442718,-2.7289366722106934,-0.1885582059621811,1.4243491888046265,-1.3577264547348022,-0.5053628087043762,1.44218909740448
1740157917187442718,-2.724334716796875,-0.19169646501541138,1.421103835105896,-1.3597973585128784,-0.5098808407783508,1.4443421363830566
1740157917207442718,-2.7197787761688232,-0.19487948715686798,1.417811393737793,-1.3618375062942505,-0.5143389701843262,1.4464772939682007
1740157917227442718,-2.715261220932007,-0.19812001287937164,1.414495587348938,-1.363877773284912,-0.5187371969223022,1.4486135244369507
1740157917247442718,-2.710766553878784,-0.20135416090488434,1.4111720323562622,-1.3659025430679321,-0.5231234431266785,1.450711727142334
1740157917267442718,-2.7062721252441406,-0.204594686627388,1.4077701568603516,-1.3678967952728271,-0.5274976491928101,1.4527910947799683
1740157917287442718,-2.701777458190918,-0.20787358283996582,1.4042901992797852,-1.3698909282684326,-0.5318599343299866,1.4549089670181274
1740157917307442718,-2.697305917739868,-0.21118441224098206,1.4007866382598877,-1.3718698024749756,-0.5361502766609192,1.4569898843765259
1740157917327442718,-2.692888021469116,-0.2145400047302246,1.3972831964492798,-1.3738179206848145,-0.5404166579246521,1.4590328931808472
1740157917347442718,-2.6885085105895996,-0.21790197491645813,1.3936936855316162,-1.3757660388946533,-0.5446710586547852,1.461114525794983
1740157917367442718,-2.684152126312256,-0.22128312289714813,1.3900415897369385,-1.3776988983154297,-0.5489614009857178,1.4631763696670532
1740157917387442718,-2.679826259613037,-0.22472180426120758,1.3863894939422607,-1.379616379737854,-0.553203821182251,1.4651623964309692
1740157917407442718,-2.675607681274414,-0.2281349003314972,1.3827530145645142,-1.3815032243728638,-0.5573383569717407,1.467188835144043
1740157917427442718,-2.671703815460205,-0.23135626316070557,1.379171371459961,-1.3832979202270508,-0.5612332224845886,1.469124436378479
1740157917447442718,-2.668321371078491,-0.23419412970542908,1.3759651184082031,-1.3849085569381714,-0.5646607279777527,1.470800757408142
1740157917467442718,-2.6655986309051514,-0.2364887148141861,1.373470425605774,-1.3861510753631592,-0.5673811435699463,1.4721460342407227
1740157917487442718,-2.663635015487671,-0.23810578882694244,1.3717498779296875,-1.3870102167129517,-0.5692746639251709,1.4730669260025024
1740157917527442718,-2.661518096923828,-0.23961420357227325,1.3702561855316162,-1.3876698017120361,-0.5709524750709534,1.4737812280654907
1740157917867442718,-2.6592938899993896,-0.24105869233608246,1.3689581155776978,-1.388267993927002,-0.5727141499519348,1.4745897054672241
1740157917907442718,-2.6552441120147705,-0.24449098110198975,1.3652122020721436,-1.3900474309921265,-0.576585054397583,1.476544737815857
1740157917927442718,-2.6522836685180664,-0.24714349210262299,1.3622325658798218,-1.3914587497711182,-0.5796170830726624,1.4780372381210327
1740157917947442718,-2.648824453353882,-0.250262588262558,1.3587369918823242,-1.3930847644805908,-0.5831284523010254,1.4798461198806763
1740157917967442718,-2.644989490509033,-0.2536948621273041,1.3549128770828247,-1.3948488235473633,-0.5869513750076294,1.4817638397216797
1740157917987442718,-2.640962839126587,-0.2572997212409973,1.3509010076522827,-1.3966588973999023,-0.5909181833267212,1.4837361574172974
1740157918007442718,-2.6368746757507324,-0.26096847653388977,1.3468266725540161,-1.3984843492507935,-0.5948489904403687,1.485709309577942
1740157918027442718,-2.6327712535858154,-0.26468199491500854,1.342681884765625,-1.4002944231033325,-0.5987918376922607,1.4877204895019531
1740157918047442718,-2.6286909580230713,-0.26844024658203125,1.338435411453247,-1.4021044969558716,-0.6027226448059082,1.4897128343582153
1740157918067442718,-2.6247026920318604,-0.27216655015945435,1.3341655731201172,-1.4039145708084106,-0.6066055297851562,1.4917250871658325
1740157918087442718,-2.6209750175476074,-0.27577778697013855,1.330005168914795,-1.4056633710861206,-0.6103565692901611,1.4937210083007812
1740157918107442718,-2.617692232131958,-0.27906307578086853,1.3261810541152954,-1.4072587490081787,-0.613652229309082,1.4955341815948486
1740157918127442718,-2.614969491958618,-0.28178587555885315,1.3230372667312622,-1.4085779190063477,-0.6163726449012756,1.497013807296753
1740157918147442718,-2.612929344177246,-0.2837672829627991,1.3207615613937378,-1.4094983339309692,-0.6183381080627441,1.4980099201202393
1740157918187442718,-2.610574722290039,-0.2857358753681183,1.318689227104187,-1.4103113412857056,-0.6202195882797241,1.4989310503005981
1740157918467442718,-2.6080973148345947,-0.28759583830833435,1.3168905973434448,-1.4110015630722046,-0.6221370697021484,1.4997748136520386
1740157918487442718,-2.606463670730591,-0.28915539383888245,1.3151309490203857,-1.4117225408554077,-0.6236351132392883,1.500626802444458
1740157918507442718,-2.60429310798645,-0.29140523076057434,1.3124799728393555,-1.412781000137329,-0.6258642077445984,1.501847743988037
1740157918527442718,-2.601823329925537,-0.29414722323417664,1.3091641664505005,-1.41411554813385,-0.6285606026649475,1.5034044981002808
1740157918547442718,-2.5993611812591553,-0.29696589708328247,1.3057466745376587,-1.4155114889144897,-0.6312930583953857,1.5049606561660767
1740157918567442718,-2.5970985889434814,-0.2994841933250427,1.302743673324585,-1.416707992553711,-0.6336898803710938,1.5063506364822388
1740157918587442718,-2.595303773880005,-0.3013952672481537,1.300514817237854,-1.4175670146942139,-0.635463535785675,1.5072932243347168
1740157918627442718,-2.593179225921631,-0.3032808005809784,1.2984659671783447,-1.4183340072631836,-0.637105405330658,1.5081231594085693
1740157920147442718,-2.595595359802246,-0.30097344517707825,1.3008511066436768,-1.4177050590515137,-0.6354755163192749,1.5079832077026367
1740157920167442718,-2.597712278366089,-0.29880669713020325,1.3033536672592163,-1.4166467189788818,-0.6332704424858093,1.506723403930664
1740157920187442718,-2.6004273891448975,-0.2959624230861664,1.3067163228988647,-1.4152660369873047,-0.6304301619529724,1.5050352811813354
1740157920207442718,-2.6036102771759033,-0.2926260232925415,1.3106656074523926,-1.413655400276184,-0.6271105408668518,1.5031075477600098
1740157920227442718,-2.607184648513794,-0.288970023393631,1.3148807287216187,-1.4119067192077637,-0.6234793066978455,1.5010135173797607
1740157920247442718,-2.6109888553619385,-0.2851734161376953,1.3192522525787354,-1.410096526145935,-0.6197043061256409,1.498883843421936
1740157920267442718,-2.6149234771728516,-0.2813512682914734,1.323655128479004,-1.408286452293396,-0.6158933043479919,1.4967740774154663
1740157920287442718,-2.6189348697662354,-0.2775227129459381,1.328003168106079,-1.406476378440857,-0.6120223999023438,1.4946848154067993
1740157920307442718,-2.622969150543213,-0.27369412779808044,1.3323278427124023,-1.4046509265899658,-0.6081395149230957,1.4925956726074219
1740157920327442718,-2.627042055130005,-0.26991671323776245,1.3366211652755737,-1.4028408527374268,-0.6042206883430481,1.4905457496643066
1740157920347442718,-2.6311452388763428,-0.26617762446403503,1.340851902961731,-1.4010154008865356,-0.6002898216247559,1.4884767532348633
1740157920367442718,-2.63525652885437,-0.26243856549263,1.3450592756271362,-1.3992053270339966,-0.5963590145111084,1.4864461421966553
1740157920387442718,-2.6393752098083496,-0.25872504711151123,1.3492118120193481,-1.3973798751831055,-0.5924042463302612,1.4844352006912231
1740157920407442718,-2.6435015201568604,-0.2550690472126007,1.353278398513794,-1.3955390453338623,-0.5884134769439697,1.482444167137146
1740157920427442718,-2.64762806892395,-0.25141945481300354,1.357329249382019,-1.3937137126922607,-0.584362804889679,1.4804158210754395
1740157920447442718,-2.6517772674560547,-0.24778904020786285,1.3613332509994507,-1.3918728828430176,-0.5803001523017883,1.4784071445465088
1740157920467442718,-2.6559805870056152,-0.24419057369232178,1.3652513027191162,-1.390016794204712,-0.5762255191802979,1.4763984680175781
1740157920487442718,-2.660222053527832,-0.24063685536384583,1.3691692352294922,-1.3881759643554688,-0.5721149444580078,1.4743907451629639
1740157920507442718,-2.664501667022705,-0.237095907330513,1.373071551322937,-1.386304497718811,-0.568004310131073,1.47238290309906
1740157920527442718,-2.66880464553833,-0.23355497419834137,1.3768800497055054,-1.3844330310821533,-0.5638458132743835,1.470375895500183
1740157920547442718,-2.6730921268463135,-0.230071559548378,1.3806415796279907,-1.382546305656433,-0.5596873164176941,1.4683499336242676
1740157920567442718,-2.6773717403411865,-0.22662010788917542,1.384387493133545,-1.3806440830230713,-0.5555287599563599,1.4662855863571167
1740157920587442718,-2.681689977645874,-0.2231750339269638,1.3880630731582642,-1.378741979598999,-0.5513222813606262,1.4642603397369385
1740157920607442718,-2.686046600341797,-0.219761922955513,1.39168381690979,-1.3768244981765747,-0.5470678806304932,1.4622554779052734
1740157920627442718,-2.6904566287994385,-0.21638716757297516,1.3952890634536743,-1.374891757965088,-0.5427775382995605,1.4601937532424927
1740157920647442718,-2.694912910461426,-0.21303798258304596,1.398878574371338,-1.3729435205459595,-0.5384871959686279,1.4580936431884766
1740157920667442718,-2.6993768215179443,-0.20968878269195557,1.4023898839950562,-1.3709954023361206,-0.5341968536376953,1.4560127258300781
1740157920687442718,-2.703840732574463,-0.20637795329093933,1.4058386087417603,-1.3690165281295776,-0.5298824906349182,1.453951358795166
1740157920707442718,-2.70829701423645,-0.20311184227466583,1.4093029499053955,-1.3670223951339722,-0.5255082845687866,1.4518529176712036
1740157920727442718,-2.7127606868743896,-0.19986492395401,1.4126969575881958,-1.3650282621383667,-0.5211459994316101,1.4497926235198975
1740157920747442718,-2.7172553539276123,-0.19663716852664948,1.4160127639770508,-1.3630033731460571,-0.5167717933654785,1.447636604309082
1740157920767442718,-2.7218189239501953,-0.1934477686882019,1.419289469718933,-1.360947847366333,-0.5123615860939026,1.445538878440857
1740157920787442718,-2.7264208793640137,-0.19028392434120178,1.4225817918777466,-1.3588769435882568,-0.5079154372215271,1.4433844089508057
1740157920807442718,-2.731045961380005,-0.18716484308242798,1.4258116483688354,-1.3568060398101807,-0.5033974051475525,1.441231369972229
1740157920827442718,-2.735670804977417,-0.18403935432434082,1.4289631843566895,-1.3546892404556274,-0.4989033043384552,1.439058542251587
1740157920847442718,-2.7402727603912354,-0.18093304336071014,1.4320913553237915,-1.3525569438934326,-0.4943852424621582,1.436867117881775
1740157920867442718,-2.744905471801758,-0.17789064347743988,1.4352116584777832,-1.3503940105438232,-0.4898432195186615,1.4346569776535034
1740157920887442718,-2.749591588973999,-0.1748674213886261,1.4382771253585815,-1.3482158184051514,-0.48526525497436523,1.4323900938034058
1740157920907442718,-2.754331588745117,-0.1718633770942688,1.4412645101547241,-1.3459914922714233,-0.48067528009414673,1.43010413646698
1740157920927442718,-2.7591099739074707,-0.1688912957906723,1.444212794303894,-1.3437519073486328,-0.4760853350162506,1.4277799129486084
1740157920947442718,-2.763888359069824,-0.16596394777297974,1.4471532106399536,-1.3414815664291382,-0.4714713990688324,1.4254179000854492
1740157920967442718,-2.7686591148376465,-0.16305577754974365,1.4500623941421509,-1.339180588722229,-0.4667735993862152,1.4231150150299072
1740157920987442718,-2.7734220027923584,-0.1601603776216507,1.4529011249542236,-1.3368489742279053,-0.46207576990127563,1.4206970930099487
1740157921007442718,-2.778208017349243,-0.15729056298732758,1.4556695222854614,-1.3344866037368774,-0.4573899507522583,1.4182789325714111
1740157921027442718,-2.783055543899536,-0.1544654816389084,1.4584300518035889,-1.3320783376693726,-0.45268014073371887,1.4158995151519775
1740157921047442718,-2.7879488468170166,-0.15168513357639313,1.4611828327178955,-1.3296239376068115,-0.44792240858078003,1.4133869409561157
1740157921067442718,-2.792872905731201,-0.14890480041503906,1.4638807773590088,-1.3271235227584839,-0.4431646764278412,1.4108359813690186
1740157921087442718,-2.7978124618530273,-0.1461564153432846,1.4664849042892456,-1.3245924711227417,-0.4384189248085022,1.4082847833633423
1740157921107442718,-2.8027210235595703,-0.14345917105674744,1.4690812826156616,-1.322015404701233,-0.43366116285324097,1.4056763648986816
1740157921127442718,-2.8076374530792236,-0.14078748226165771,1.471638560295105,-1.31940758228302,-0.4288315176963806,1.4030500650405884
1740157921147442718,-2.812607526779175,-0.1381477564573288,1.4741957187652588,-1.316738486289978,-0.423941969871521,1.4003291130065918
1740157921167442718,-2.817631483078003,-0.13553360104560852,1.4766669273376465,-1.3140233755111694,-0.419052392244339,1.3975508213043213
1740157921187442718,-2.82270884513855,-0.1329450011253357,1.4790678024291992,-1.3112621307373047,-0.4141508638858795,1.394753336906433
1740157921207442718,-2.827786445617676,-0.13036920130252838,1.4814451932907104,-1.308454990386963,-0.40922534465789795,1.3918988704681396
1740157921227442718,-2.83284854888916,-0.127838134765625,1.4837990999221802,-1.305555820465088,-0.4042758643627167,1.3890067338943481
1740157921247442718,-2.8378875255584717,-0.12535180151462555,1.4861373901367188,-1.3025951385498047,-0.39933836460113525,1.3860374689102173
1740157921267442718,-2.8429651260375977,-0.12288464605808258,1.4884130954742432,-1.299573302268982,-0.3943888545036316,1.3829727172851562
1740157921287442718,-2.8481040000915527,-0.12044945359230042,1.490618348121643,-1.296489953994751,-0.38935548067092896,1.3798327445983887
1740157921307442718,-2.8532965183258057,-0.11806539446115494,1.4928081035614014,-1.2933299541473389,-0.3843221068382263,1.3767120838165283
1740157921327442718,-2.858504295349121,-0.11570050567388535,1.4949586391448975,-1.2901239395141602,-0.37927675247192383,1.3734382390975952
1740157921347442718,-2.8636815547943115,-0.11335479468107224,1.4970779418945312,-1.2868105173110962,-0.37423139810562134,1.3700684309005737
1740157921367442718,-2.868858575820923,-0.11104103922843933,1.4991737604141235,-1.283420443534851,-0.36916208267211914,1.3665841817855835
1740157921387442718,-2.8740742206573486,-0.10877202451229095,1.501214861869812,-1.2799383401870728,-0.3640807569026947,1.363061785697937
1740157921407442718,-2.8793435096740723,-0.10652218759059906,1.5031933784484863,-1.2763488292694092,-0.35902342200279236,1.3594430685043335
1740157921427442718,-2.884674072265625,-0.10429791361093521,1.5051171779632568,-1.272682547569275,-0.3539420962333679,1.3557863235473633
1740157921447442718,-2.8900046348571777,-0.10213116556406021,1.5070018768310547,-1.268908977508545,-0.3487769067287445,1.351978063583374
1740157921467442718,-2.8953120708465576,-0.09998998045921326,1.508863091468811,-1.2650279998779297,-0.343587726354599,1.3480744361877441
1740157921487442718,-2.900604486465454,-0.09787436574697495,1.5107086896896362,-1.2610396146774292,-0.33841055631637573,1.3441128730773926
1740157921507442718,-2.9059274196624756,-0.09578432142734528,1.5125151872634888,-1.256928563117981,-0.3332333564758301,1.3399404287338257
1740157921527442718,-2.911303997039795,-0.0937454029917717,1.5142669677734375,-1.252679467201233,-0.32802021503448486,1.3356727361679077
1740157921547442718,-2.9166574478149414,-0.09177040308713913,1.515956163406372,-1.2483229637145996,-0.3228670060634613,1.3312506675720215
1740157921567442718,-2.9217350482940674,-0.08987849205732346,1.5175671577453613,-1.2439358234405518,-0.3179055452346802,1.3268437385559082
1740157921587442718,-2.926198959350586,-0.08818472176790237,1.5190060138702393,-1.239840030670166,-0.313435435295105,1.3227722644805908
1740157921607442718,-2.9298958778381348,-0.08680413663387299,1.5201634168624878,-1.2364192008972168,-0.30969634652137756,1.319338083267212
1740157921627442718,-2.9326722621917725,-0.08580705523490906,1.5210002660751343,-1.2339341640472412,-0.30697593092918396,1.3168805837631226
1740157921647442718,-2.9345591068267822,-0.08518067747354507,1.5215007066726685,-1.2324461936950684,-0.3052981495857239,1.3154184818267822
1740157921687442718,-2.936330795288086,-0.084701307117939,1.5218682289123535,-1.2314645051956177,-0.3039918541908264,1.314428448677063
1740157922007442718,-2.938601016998291,-0.08404936641454697,1.5221967697143555,-1.2300225496292114,-0.30206239223480225,1.3127987384796143
1740157922027442718,-2.94069504737854,-0.0833718553185463,1.5227285623550415,-1.2282124757766724,-0.30010896921157837,1.310958743095398
1740157922047442718,-2.9437015056610107,-0.08237477391958237,1.523557424545288,-1.2252979278564453,-0.2971848249435425,1.3080259561538696
1740157922067442718,-2.9475672245025635,-0.08107727766036987,1.5246601104736328,-1.2212941646575928,-0.2933139204978943,1.3039616346359253
1740157922087442718,-2.9521079063415527,-0.07955607771873474,1.5259191989898682,-1.2164621353149414,-0.2887718975543976,1.2990862131118774
1740157922107442718,-2.957108497619629,-0.07791983336210251,1.5272486209869385,-1.2110779285430908,-0.283846378326416,1.2937006950378418
1740157922127442718,-2.962132453918457,-0.07630915194749832,1.5285546779632568,-1.2054789066314697,-0.27892085909843445,1.2881042957305908
1740157922147442718,-2.9667344093322754,-0.07483909279108047,1.529751181602478,-1.2000792026519775,-0.27437883615493774,1.2827495336532593
1740157922167442718,-2.970653772354126,-0.07362468540668488,1.5307364463806152,-1.1954926252365112,-0.27053189277648926,1.2781670093536377
1740157922187442718,-2.973644971847534,-0.07272347807884216,1.5314481258392334,-1.1921025514602661,-0.267667680978775,1.2747728824615479
1740157922207442718,-2.9756927490234375,-0.07214823365211487,1.531886100769043,-1.1900163888931274,-0.26587003469467163,1.2726802825927734
1740157922247442718,-2.977633237838745,-0.07169442623853683,1.5321989059448242,-1.1886050701141357,-0.2644319236278534,1.2713093757629395
1740157933687442718,-2.977625608444214,-0.07164968550205231,1.5322301387786865,-1.190507173538208,-0.26628947257995605,1.272403597831726
1740157933707442718,-2.977203845977783,-0.07169442623853683,1.5322145223617554,-1.1939586400985718,-0.26946529746055603,1.275887370109558
1740157933727442718,-2.976597785949707,-0.07188617438077927,1.532120704650879,-1.198959469795227,-0.2739953398704529,1.2809163331985474
1740157933747442718,-2.9759304523468018,-0.07213544845581055,1.5319173336029053,-1.204926609992981,-0.27917253971099854,1.286814570426941
1740157933767442718,-2.9752633571624756,-0.07238472253084183,1.5317296981811523,-1.2107096910476685,-0.28436169028282166,1.2924439907073975
1740157933787442718,-2.974672794342041,-0.07258924841880798,1.5315732955932617,-1.21540367603302,-0.28873592615127563,1.2969776391983032
1740157933807442718,-2.9742431640625,-0.07272986322641373,1.5314403772354126,-1.2186096906661987,-0.2918158769607544,1.3000415563583374
1740157933827442718,-2.9739439487457275,-0.07281934469938278,1.5313464403152466,-1.2203278541564941,-0.29367342591285706,1.3017301559448242
1740157935027442718,-2.974388837814331,-0.07278738915920258,1.5312526226043701,-1.2157565355300903,-0.289191335439682,1.2978123426437378
1740157935047442718,-2.974848985671997,-0.07262121140956879,1.5312917232513428,-1.2118141651153564,-0.2856200337409973,1.293914556503296
1740157935067442718,-2.975270986557007,-0.07244224101305008,1.5314090251922607,-1.2081326246261597,-0.28231239318847656,1.2903374433517456
1740157935087442718,-2.9756083488464355,-0.07230162620544434,1.531518578529358,-1.2054635286331177,-0.2798316478729248,1.2877217531204224
1740157935127442718,-2.97599196434021,-0.07219936698675156,1.5316749811172485,-1.203377366065979,-0.277530699968338,1.2856777906417847
1740157935807442718,-2.9764060974121094,-0.07209710031747818,1.5318626165390015,-1.2015365362167358,-0.27525368332862854,1.2835948467254639
1740157935827442718,-2.9767513275146484,-0.07200122624635696,1.5319095849990845,-1.1988060474395752,-0.2727489769458771,1.2809221744537354
1740157935847442718,-2.9772651195526123,-0.07184143364429474,1.5320346355438232,-1.1942808628082275,-0.2688421308994293,1.2765518426895142
1740157935867442718,-2.9779248237609863,-0.07162412256002426,1.5321989059448242,-1.18800687789917,-0.26377278566360474,1.2704404592514038
1740157935887442718,-2.978691816329956,-0.07140680402517319,1.5323787927627563,-1.1804749965667725,-0.25790053606033325,1.2631373405456543
1740157935907442718,-2.979458808898926,-0.07118310034275055,1.5325586795806885,-1.172467589378357,-0.2519683241844177,1.2553943395614624
1740157935927442718,-2.9801719188690186,-0.07098495960235596,1.5327306985855103,-1.1650584936141968,-0.24669528007507324,1.248270869255066
1740157935947442718,-2.9807472229003906,-0.07082517445087433,1.5328480005264282,-1.1591219902038574,-0.24250079691410065,1.2425256967544556
1740157935967442718,-2.9811460971832275,-0.07071651518344879,1.5329339504241943,-1.1551949977874756,-0.23964855074882507,1.2386902570724487
1740157935987442718,-2.9814069271087646,-0.07064621150493622,1.532973051071167,-1.1531394720077515,-0.23800671100616455,1.2366905212402344
1740157943787442718,-2.9815986156463623,-0.07061424851417542,1.5330044031143188,-1.1518049240112305,-0.23550200462341309,1.2353216409683228
1740157943807442718,-2.9815986156463623,-0.07061424851417542,1.5330044031143188,-1.1518049240112305,-0.23357254266738892,1.2353410720825195
1740157943827442718,-2.981621503829956,-0.07061424851417542,1.5330044031143188,-1.1518049240112305,-0.23066037893295288,1.2353419065475464
1740157943847442718,-2.981621503829956,-0.07061424851417542,1.5330044031143188,-1.1518049240112305,-0.2271609902381897,1.235335111618042
1740157943867442718,-2.981621503829956,-0.07061424851417542,1.5330044031143188,-1.1518049240112305,-0.22376945614814758,1.2353262901306152
1740157943887442718,-2.9815986156463623,-0.07061424851417542,1.5330044031143188,-1.1518049240112305,-0.22101308405399323,1.2353239059448242
1740157943907442718,-2.9815986156463623,-0.07061424851417542,1.5330044031143188,-1.1518049240112305,-0.21919147670269012,1.235341191291809
1740157944347442718,-2.9815986156463623,-0.07061424851417542,1.5330044031143188,-1.1518049240112305,-0.2173219472169876,1.2353401184082031
1740157944387442718,-2.9815986156463623,-0.07061424851417542,1.5330044031143188,-1.1518049240112305,-0.21467342972755432,1.2353355884552002
1740157944407442718,-2.9815986156463623,-0.07061424851417542,1.5330044031143188,-1.1518049240112305,-0.21173729002475739,1.2353367805480957
1740157944427442718,-2.981621503829956,-0.07061424851417542,1.5330044031143188,-1.1518049240112305,-0.2079143226146698,1.2353366613388062
1740157944447442718,-2.981621503829956,-0.07061424851417542,1.5330044031143188,-1.1518049240112305,-0.20381571352481842,1.2353225946426392
1740157944467442718,-2.9815986156463623,-0.07061424851417542,1.5330044031143188,-1.1518049240112305,-0.20018449425697327,1.2353378534317017
1740157944487442718,-2.9815986156463623,-0.07061424851417542,1.5330044031143188,-1.1518049240112305,-0.19753599166870117,1.2353332042694092
1740157944527442718,-2.9815986156463623,-0.07061424851417542,1.5330044031143188,-1.1518049240112305,-0.19513913989067078,1.2353236675262451
1740157944827442718,-2.9815986156463623,-0.07061424851417542,1.5330044031143188,-1.1518049240112305,-0.19337746500968933,1.2353397607803345
1740157944847442718,-2.9815986156463623,-0.07061424851417542,1.5330044031143188,-1.1518049240112305,-0.19147196412086487,1.2353394031524658
1740157944867442718,-2.9815986156463623,-0.07061424851417542,1.5330044031143188,-1.1518049240112305,-0.18830813467502594,1.2353260517120361
1740157944887442718,-2.981621503829956,-0.07061424851417542,1.5329965353012085,-1.1518049240112305,-0.18418556451797485,1.2353317737579346
1740157944907442718,-2.981621503829956,-0.07061424851417542,1.5330044031143188,-1.1518049240112305,-0.17976337671279907,1.2353435754776
1740157944927442718,-2.9815986156463623,-0.07061424851417542,1.5330044031143188,-1.1518049240112305,-0.17584453523159027,1.2353260517120361
1740157944947442718,-2.9815986156463623,-0.07061424851417542,1.5330044031143188,-1.1518049240112305,-0.1729443520307541,1.2353265285491943
1740157944967442718,-2.9815986156463623,-0.07061424851417542,1.5330044031143188,-1.1518049240112305,-0.1711946576833725,1.235342264175415
1740157945187442718,-2.981590986251831,-0.07061424851417542,1.5330044031143188,-1.1518049240112305,-0.16892963647842407,1.2353301048278809
1740157945227442718,-2.981590986251831,-0.07061424851417542,1.5330044031143188,-1.1518049240112305,-0.16471119225025177,1.235337734222412
1740157945247442718,-2.981621503829956,-0.07061424851417542,1.5330044031143188,-1.1518049240112305,-0.1610080599784851,1.235335111618042
1740157945267442718,-2.981621503829956,-0.07061424851417542,1.5330044031143188,-1.1518049240112305,-0.15689747035503387,1.2353405952453613
1740157945287442718,-2.981621503829956,-0.07061424851417542,1.5330044031143188,-1.1518049240112305,-0.1530984789133072,1.235339879989624
1740157945307442718,-2.981590986251831,-0.07061424851417542,1.5330044031143188,-1.1518049240112305,-0.150198295712471,1.2353404760360718
1740157945327442718,-2.981590986251831,-0.07061424851417542,1.5330044031143188,-1.1518049240112305,-0.14841264486312866,1.235337734222412
1740157955547442718,-2.981590986251831,-0.07061424851417542,1.5330044031143188,-1.1518049240112305,-0.14666295051574707,1.2353343963623047
1740157955587442718,-2.981590986251831,-0.07062064111232758,1.5330044031143188,-1.1518049240112305,-0.14267219603061676,1.2353376150131226
1740157955607442718,-2.981590986251831,-0.07062064111232758,1.5330044031143188,-1.1518049240112305,-0.13729128241539001,1.2353301048278809
1740157955627442718,-2.9815833568573,-0.07062064111232758,1.5330044031143188,-1.1518049240112305,-0.1303044855594635,1.2353357076644897
1740157955647442718,-2.981613874435425,-0.07062064111232758,1.5330044031143188,-1.1518049240112305,-0.1197224110364914,1.2353363037109375
1740157955667442718,-2.981613874435425,-0.07062064111232758,1.5330044031143188,-1.1518049240112305,-0.10631205886602402,1.2353360652923584
1740157955687442718,-2.981613874435425,-0.07061424851417542,1.5330044031143188,-1.1518049240112305,-0.08959406614303589,1.2353253364562988
1740157955707442718,-2.981613874435425,-0.07061424851417542,1.5330044031143188,-1.1518049240112305,-0.07599197328090668,1.2353289127349854
1740157955727442718,-2.981613874435425,-0.07061424851417542,1.5330044031143188,-1.1518049240112305,-0.062377892434597015,1.235332727432251
1740157955747442718,-2.9815833568573,-0.07061424851417542,1.5330044031143188,-1.1518049240112305,-0.05153216794133186,1.2353386878967285
1740157955767442718,-2.9815833568573,-0.07061424851417542,1.5330044031143188,-1.1518049240112305,-0.04405401274561882,1.235334873199463
1740157955787442718,-2.9815833568573,-0.07062064111232758,1.5330044031143188,-1.1518049240112305,-0.03947603702545166,1.235330581665039
1740157955807442718,-2.9815833568573,-0.07061424851417542,1.5330044031143188,-1.1518049240112305,-0.0370192714035511,1.2353413105010986
1740157955887442718,-2.9815833568573,-0.07061424851417542,1.5330044031143188,-1.1518049240112305,-0.03520965203642845,1.2353392839431763
1740157993866401694,-2.981613874435425,-0.07058868557214737,1.5330356359481812,-1.151820182800293,-0.03718705102801323,1.2353763580322266
1740157993886401694,-2.981621503829956,-0.07059507817029953,1.5330356359481812,-1.151820182800293,-0.04067445918917656,1.2353641986846924
1740157993906401694,-2.981590986251831,-0.07059507817029953,1.5330356359481812,-1.151820182800293,-0.0466306209564209,1.2353601455688477
1740157993926401694,-2.981590986251831,-0.07059507817029953,1.5330356359481812,-1.151820182800293,-0.05662546306848526,1.2353711128234863
1740157993946401694,-2.981590986251831,-0.07059507817029953,1.5330356359481812,-1.151820182800293,-0.06895723193883896,1.2353545427322388
1740157993966401694,-2.981590986251831,-0.07059507817029953,1.5330356359481812,-1.151820182800293,-0.08253535628318787,1.2353514432907104
1740157993986401694,-2.981590986251831,-0.07060147076845169,1.5330356359481812,-1.151820182800293,-0.10153035819530487,1.235355019569397
1740157994006401694,-2.981590986251831,-0.07060785591602325,1.5330356359481812,-1.151820182800293,-0.12022574990987778,1.235364556312561
1740157994026401694,-2.981590986251831,-0.07061424851417542,1.5330356359481812,-1.151820182800293,-0.1396881341934204,1.2353588342666626
1740157994046401694,-2.981590986251831,-0.07062064111232758,1.5330356359481812,-1.151820182800293,-0.15931828320026398,1.2353497743606567
1740157994066401694,-2.981590986251831,-0.07062703371047974,1.5330356359481812,-1.151820182800293,-0.17872075736522675,1.2353452444076538
1740157994086401694,-2.981590986251831,-0.07063981890678406,1.5330435037612915,-1.151820182800293,-0.19714049994945526,1.2353602647781372
